**kern	**kern	**kern	**kern	**dynam
*part4	*part3	*part2	*part1	*part1
*staff4	*staff3	*staff2	*staff1	*
*I"Cello	*I"Viola	*I"2nd Violin	*I"1st Violin	*
*clefF4	*clefC3	*clefG2	*clefG2	*
*k[b-e-a-d-]	*k[b-e-a-d-]	*k[b-e-a-d-]	*k[b-e-a-d-]	*
*f:	*f:	*f:	*f:	*
*M2/4	*M2/4	*M2/4	*M2/4	*
=1	=1	=1	=1	=1
!	!	!	!LO:TX:a:B:t=Adagio molto e mesto	!
2r	2r	4r	2r	.
.	.	[4c	.	.
=2	=2	=2	=2	=2
!	!LO:TX:a:i:t=sotto voce.	!	!	!
4r	(4F	2c_	(8ccL	.
.	.	.	16.ee-L	.
.	.	.	32dd-JJk	.
!LO:TX:a:i:t=sotto voce.	!	!	!	!
[4C	4G	.	8fL	.
.	.	.	8enJ)	.
=3	=3	=3	=3	=3
!LO:TX:b:i:t=sotto voce.	!	!LO:TX:a:i:t=sotto voce.	!	!
8CL]	8A-L	8cL]	(8fL	.
8CJ	8EnJ	[8cJ	16.ccL	.
.	.	.	32gJJk	.
8FFL	8GL	8cL]	8b-L	.
[8FJ	16FJk)	16cJk	16a-Jk)	.
.	16r	16r	16r	.
=4	=4	=4	=4	=4
*	*	*	*^	*
(8FL]	(8A-L	8r	(8..ccL	4..ryy	.
8A-J	8cJ	(8f	.	.	.
.	.	.	32ffJkk)	.	.
8.GL	8d-L	8.b-L	(8ffL	.	.
.	16cL)	.	16eenL	.	.
.	.	.	.	1%0ff\yy	.
.	.	.	.	1%0gg\yy	.
.	.	.	.	1%0ff\yy	.
*	*	*	*v	*v	*
16FJk)	16cJJ	16a-Jk)	16ffTJJ)	.
.	.	.	16qqee/LL	.
.	.	.	16qqff/JJ	.
=5	=5	=5	=5	=5
(16EnLL	(16cLL	(16gLL	(16ggLL	.
16C)	16g)	16b-)	16cc)	.
(16F'	(16f'	(16a-'	(16cc'	.
16A-'JJ)	16f'JJ)	16a-'JJ)	16bn'JJ)	.
!LO:TX:b:i:t=cresc.	!LO:TX:b:i:t=cresc.	!LO:TX:b:i:t=cresc.	!LO:TX:b:i:t=cresc.	!
4c	(8fL	(8a-L	(8bL	.
.	8enJ)	8gJ)	8ccJ)	.
=6	=6	=6	=6	=6
(8B-L	4e-	(4g	(8dd-L	.
8d-J	.	.	16.b-L	.
.	.	.	32ee-JJk)	.
8.cL	(8e-L	8.a-L	(8.ee-L	.
.	16.a-L	.	.	.
!	!	!	!	!
16A-Jk)	.	16cJk)	16ccJk)	.
.	32e-JJk)	.	.	.
=7	=7	=7	=7	=7
!	!	!	!	!
(8B-L	4e-	8GL	(16ee-LL	.
.	.	.	16dd-	.
8d-J	.	(8gJ	16.b-	.
.	.	.	32ee-JJk)	.
8.cL	8e-L	8.a-L	4ee-	.
.	16.a-L	.	.	.
16A-Jk)	.	16ccJk)	.	.
.	32cJJk	.	.	.
=8	=8	=8	=8	=8
4G	4B-	4c 4en	4cc 4een	.
8..FL	8..A-L	8cL 8f	8..ccL 8..ff	.
.	.	(8a-J	.	.
32D-Jkk	32FJkk	.	32fJkk	.
=9	=9	=9	=9	=9
!!linebreak:original
!LO:TX:b:i:t=morendo.	!LO:TX:b:i:t=morendo.	!LO:TX:b:i:t=morendo.	!LO:TX:b:i:t=morendo.	!
(8BB-L	(8fL	8b-L	(8dd-L	.
8CJ)	8enJ)	8gJ)	8ccJ)	.
(8.CL	(16eLL	(16gLL	[4cc	.
.	16B-	16en	.	.
.	16A-	16f	.	.
16cJk)	16EnJJ)	16b-JJ)	.	.
*clefG2	*	*	*	*
=10	=10	=10	=10	=10
(8ccL	(4F	(4a-	4cc]	.
16.ee-L	.	.	.	.
!LO:TX:b:i:t=espressivo	!	!	!	!
32dd-JJk	.	.	.	.
8fL	[4C)	8gL	(16b-KL	.
.	.	.	8aa-	.
16enJk)	.	8b-J)	.	.
16r	.	.	[16ggJk)	.
=11	=11	=11	=11	=11
*	*	*	*^	*
(8fL	8CL]	(8a-L	16ggKL]	16ryy	.
.	.	.	8ff	4ryy	.
16.ccL	8CJ	16b-L	.	.	.
.	.	16ccJJ)	[16eenJk	.	.
32gJJk	.	.	.	.	.
8b-L	8.F	4cc	16eeLL]	.	.
.	.	.	.	1%0ee\yy	.
.	.	.	.	1%0ff#\yy	.
.	.	.	.	1%0ff\yy	.
.	.	.	(16eet	8ryy	.
.	.	.	16qqddn/LL	.	.
.	.	.	16qqee/JJ	.	.
16a-Jk)	.	.	16gg	.	.
*	*	*	*v	*v	*
16r	16r	.	16ffJJ)	.
=12	=12	=12	=12	=12
*^	*	*	*	*
(8..ccL	4..ryy	(8FL	8r	8r	.
.	.	8A-J	(8cc	(16ffLL	.
.	.	.	.	[16cccJJ)	.
32ffJkk)	.	.	.	.	.
(8ffL	.	8.GL	8dd-L	16cccKL]	.
.	.	.	.	8bb-	.
16eenL	.	.	16ccL)	.	.
.	1%0ff\yy	.	.	.	.
.	1%0gg\yy	.	.	.	.
.	1%0ff\yy	.	.	.	.
*v	*v	*	*	*	*
16ffTJJ)	16FJk)	(16ccJJ	[16aa-Jk	.
16qqee/LL	.	.	.	.
16qqff/JJ	.	.	.	.
=13	=13	=13	=13	=13
16ggLL	(16EnLL	16b-LL)	16aa-LL]	.
16cc	16C)	(16b-	[16gg	.
(16cc	(16F'	16a-)	16gg]	.
!LO:TX:a:i:t=cresc.	!	!	!LO:TX:b:i:t=cresc.	!
16bnJJ)	16A-'JJ)	16a-JJ	16ffJJ	.
!LO:TX:b:i:t=cresc.	!	!LO:TX:b:i:t=cresc.	!	!
(8bL	4C	(8a-L	(8ffL	.
8ccJ)	.	8gJ)	8eenJ)	.
=14	=14	=14	=14	=14
(8dd-L	(8D-L	(4g 4b-	4ee-	.
!	!	!	!	!
16.b-L	8E-J	.	.	.
32ee-JJk)	.	.	.	.
(8.ee-L	8.CL	4a-) 4cc	(32ee-KLL	.
.	.	.	16qqff/LL	>
.	.	.	16qqee-/	.
.	.	.	16qqddn/	.
.	.	.	16qqee-/JJ	.
.	.	.	16.aa-	.
.	.	.	32ee-JJk)	.
16ccJk)	16E-Jk)	.	.	.
=15	=15	=15	=15	=15
.	.	.	4ee-	]
(16ee-LL	(8D-L	(4g 4b-	.	.
16dd-	.	.	.	.
16.b-	16E-L	.	.	.
.	.	.	(8.ee-L	<
.	16DnJJ	.	.	.
32ee-JJk)	.	.	.	.
4ee-	8CL	8a-L) 8cc	.	.
.	.	.	32dd-LL	.
.	8A-J)	8cJ	32ccJJJ)	.
=16	=16	=16	=16	=16
.	.	.	4cc	f
4een	4G 4B-	4c	.	.
.	.	.	(8ccL	f
8..ffL	(8..FL 8..A-	(8cL	.	.
.	.	.	8ffJ	.
.	.	8fJ)	.	.
32fJkk	32D-Jkk)	.	.	.
=17	=17	=17	=17	=17
!!linebreak:original
!	!	!	!LO:TX:b:i:t=morendo.	!
.	.	.	8b-L	.
!!linebreak:original
!LO:TX:b:i:t=morendo.	!	!	!	!
!LO:TX:a:i:t=morendo.	!	!LO:TX:a:i:t=morendo.	!	!
*	*	*^	*	*
(8dd-L	(8D-L	8fL	(4G	.	.
.	.	.	.	8cc	.
8cc	8C	8enJ	.	.	.
.	.	.	.	8fJ)	.
*	*	*v	*v	*	*
8fJ)	8FJ)	8A-) 8f	.	.
*clefF4	*	*	*	*
16.r	8r	8r	.	.
32FF	.	.	.	.
=18	=18	=18	=18	=18
.	.	.	2r	.
*	*	*^	*	*
(8D-L	4r	2ryy	2r	.	.
8CJ)	.	.	.	.	.
!	!LO:TX:b:i:t=cresc.	!	!	!	!
[4BBn	(8a-L	.	.	.	.
.	8gJ	.	.	.	.
=19	=19	=19	=19	=19	=19
.	.	.	.	4r	.
*	*	*v	*v	*	*
(8BBL]	8fL	(8aa-L	.	.
!	!	!	!LO:TX:b:i:t=cresc.	!
.	.	.	(8eee-L	.
!LO:TX:b:i:t=cresc.	!	!	!	!
8CJ	8e-J	8ggJ	.	.
.	.	.	8dddnJ)	.
!	!	!LO:TX:b:i:t=cresc.	!	!
8A-L	8cL)	8ffL	.	.
8AnJ)	8cJ	8ff#XJ)	.	.
=20	=20	=20	=20	=20
.	.	.	(8dddn	.
.	.	.	4eee-	sf
(4G	(4Bn	(4gg	.	.
.	.	.	8ddd)	>
8A-L	8cL)	8ff#XL)	.	.
8AnJ)	8cJ	8ff#J	.	.
=21	=21	=21	=21	=21
!	!	!	!LO:TX:b:i:t=cresc.	!
.	.	.	(8dddn	]
.	.	.	4eee-	.
!LO:TX:b:i:t=cresc.	!	!LO:TX:b:i:t=cresc.	!	!
8.GL	8.BnL	8.ggL	.	.
.	.	.	8ddd)	sf
16ggJk	(16bnJk	(16ggJk	.	.
8aa-L	8ccL)	8ff#XL)	.	.
8aanJ	8ccJ	8ff#J	.	.
=22	=22	=22	=22	=22
.	.	.	8dddnL	f
.	.	.	16qqeee-/LL	.
.	.	.	16qqddd/	.
.	.	.	16qqccc/JJ	.
.	.	.	(32dddLL	.
.	.	.	32fff)	.
.	.	.	32eee-'	.
*clefG2	*	*	*	*
[2gg	8g	8bnL 8gg	32ddd'JJ	.
.	.	.	8eee-J	.
.	.	16qqccc/LL	.	.
.	.	16qqbbn/	.	.
.	.	16qaan/JJ	.	.
.	8r	(32bbLL	.	.
.	.	.	16qqfff/LL	.
.	.	.	16qqeee-/	.
.	.	.	16qqddd/JJ	.
.	.	32dddn)	(32eee-LLL	.
.	.	32ccc'	32ggg)	.
.	.	32bb'JJ	32fff	.
.	8c	8cccJ	32eee-JJJ	.
.	.	16qqddd/LL	.	.
.	.	16qqccc/	.	.
.	.	16qqbb/JJ	.	.
.	8r	(32cccLLL	.	.
.	.	32eee-)	.	.
.	.	32ddd	.	.
.	.	32cccJJJ	.	.
=23	=23	=23	=23	=23
.	.	.	(8dddn	.
.	.	.	4g) 4gg	.
8gg]	8G	8bbnL	.	.
*clefF4	*	*	*	*
(32GLLL	(32dnLLL	(32bnLL	.	.
32GG)	32a-)	32ff)	[8G [8g	.
32AAn'	32g'	32ee-'	.	.
32BBn'JJJ	32f'JJJ	32ddn'JJJ	.	.
8C	8e-L	8ccL	.	.
.	16qqf/LL	16qqdd/LL	.	.
.	16qqe-/	16qqcc/	.	.
.	16qqd/JJ	16qqb/JJ	.	.
(32CLLL	(32e-LL	(32ccLL	.	.
32CC)	32g)	32ee-)	.	.
32EE-'	32f'	32dd'	.	.
32FF'JJJ	32e-'JJJ	32cc'JJJ	.	.
=24	=24	=24	=24	=24
!!linebreak:original
.	.	.	32GLLL] 32g]	.
.	.	.	(32g	.
.	.	.	32G	.
.	.	.	32gJJJ	.
.	.	.	32BnLLL	.
.	.	.	32g	.
.	.	.	32dn	.
!!linebreak:original
4GG	4dn	4bn	32gJJJ	.
.	.	.	32f#XLLL	.
.	.	.	32g	.
.	.	.	32bn	.
.	.	.	32gJJJ	.
.	.	.	32ddnLLL	.
.	.	.	32g	.
.	.	.	32ff	.
!	!	!LO:TX:a:i:t=dim.	!	!
4r	4r	4r	32gJJJ)	.
=25	=25	=25	=25	=25
.	.	.	(32ee-LLL	.
.	.	.	32g	.
.	.	.	32cc	.
.	.	.	32gJJJ	.
.	.	.	32bnLLL	.
.	.	.	32g	.
.	.	.	32cc	.
*clefC4	*	*	*	*
!	!	!	!	!
(8cL	2r	2r	32gJJJ	.
.	.	.	32bLLL	.
.	.	.	32g	.
.	.	.	32cc	.
8e-J	.	.	32gJJJ	.
.	.	.	32ddnLLL	.
.	.	.	32g	.
.	.	.	32ee-	.
8.gL	.	.	32gJJJ)	.
16cJk)	.	.	.	.
=26	=26	=26	=26	=26
!	!LO:TX:b:i:t=espressivo	!	!	!
.	.	.	(32ffLLL	.
.	.	.	32g	.
.	.	.	32ee-	.
.	.	.	32gJJJ	.
.	.	.	32ddnLLL	.
.	.	.	32g	.
.	.	.	32cc	.
(8BnL	2r	2r	32gJJJ	.
.	.	.	32bnLLL	.
.	.	.	32g	.
.	.	.	32dd	.
8dnJ	.	.	32gJJJ	.
.	.	.	32a-LLL	.
.	.	.	32g	.
.	.	.	32b	.
8.gL	.	.	32gJJJ)	.
16fJk)	.	.	.	.
=27	=27	=27	=27	=27
.	.	.	(8ccL	.
.	.	.	8ee-J	.
(16e-LL	2c	32r	.	.
.	.	(32gLLL	8.ggL	.
16c	.	32ee-	.	.
.	.	32gJJJ)	.	.
16Bn	.	32r	.	.
.	.	(32gLLL	.	.
16cJJ	.	32ee-	.	.
.	.	32gJJJ)	16ccJk)	.
16BLL	.	32r	.	.
.	.	(32gLLL	.	.
16c	.	32ee-	.	.
.	.	32gJJJ	.	.
16dn	.	32ffLLL	.	.
.	.	32g	.	.
16e-JJ	.	32gg	.	.
.	.	32gJJJ)	.	.
=28	=28	=28	=28	=28
!!linebreak:original
!	!	!	!	!LO:DY:a
.	.	.	(8bnL	p
.	.	.	8ddnJ	.
!!linebreak:original
16fLL	[4G	32r	.	.
.	.	(32gLLL	8.ggL	.
16e-	.	32gg	.	.
.	.	32gJJJ)	.	.
16dn	.	(32ffLLL	.	.
.	.	32g	.	.
16cJJ	.	32ee-	.	.
.	.	32gJJJ)	16bbnJk)	.
16BnLL	8G_	(32ddnLLL	.	.
.	.	32g	.	.
16d	.	32ff	.	.
.	.	32gJJJ)	.	.
16G	32GLLL]	(32bnLLL	.	.
.	(32G	32g	.	.
16FJJ)	32dn	32dd	.	.
.	32GJJJ)	32gJJJ)	.	.
=29	=29	=29	=29	=29
.	.	.	(8cccL	.
.	.	.	8eee-J	.
*clefF4	*	*	*	*
(8E-L	32r	4r	.	.
.	(32cLLL	.	8.gggL	.
.	32e-	.	.	.
.	32cJJJ	.	.	.
8C	32gLLL	.	.	.
.	32c	.	.	.
.	32e-	.	.	.
.	32cJJJ)	.	16bb-XJk)	.
8.BB-	4r	32r	.	.
.	.	(32gLLL	.	.
.	.	32b-X	.	.
.	.	32gJJJ	.	.
.	.	32ddnLLL	.	.
.	.	32g	.	.
16DnJk)	.	32b-	.	.
.	.	32gJJJ)	.	.
=30	=30	=30	=30	=30
.	.	.	(8aa-L	.
.	.	.	8cccJ	.
(8FL	32r	4r	.	.
.	(32A-LLL	.	8.eee-L	.
.	32c	.	.	.
.	32A-JJJ	.	.	.
8AA-	32fLLL	.	.	.
.	32A-	.	.	.
.	32c	.	.	.
.	32A-JJJ)	.	16ggJk)	.
8.GG	4r	32r	.	.
.	.	(32e-LLL	.	.
.	.	32g	.	.
.	.	32e-JJJ	.	.
.	.	32b-LLL	.	.
.	.	32e-	.	.
16BB-Jk)	.	32g	.	.
.	.	32e-JJJ)	.	.
=31	=31	=31	=31	=31
.	.	.	(8ffL	.
.	.	.	8aa-J	.
(8D-L	32r	4r	.	.
.	(32FLLL	.	8.cccL	.
.	32A-	.	.	.
.	32FJJJ	.	.	.
8FF	32d-LLL	.	.	.
.	32F	.	.	.
.	32A-	.	.	.
.	32FJJJ)	.	16ee-Jk)	.
8.EE-	32r	32r	.	.
.	(32GLLL	(32gLLL	.	.
.	32c	32cc	.	.
.	32GJJJ	32gJJJ	.	.
.	32e-LLL	32ee-LLL	.	.
.	32c	32cc	.	.
16CJk)	32g	32gg	.	.
.	32GJJJ)	32gJJJ)	.	.
=32	=32	=32	=32	=32
!!linebreak:original
.	.	.	(8ccc	.
.	.	.	4dn) 4cc	.
!!linebreak:original
[8DDnL	4.G-X	(8an	.	.
32DDLL]	.	4An)	.	.
32FF#X	.	.	8r	.
32AAn	.	.	.	.
32CJJJ	.	.	.	.
32DnLLL	.	.	.	.
32F#X	.	.	.	.
32An	.	.	.	.
32cJJJ	.	.	.	.
(16c#XLL	(16.f#XLL	8r	.	.
16dnJJ)	.	.	.	.
.	32ccJJk)	.	.	.
=33	=33	=33	=33	=33
.	.	.	8dddn	.
.	.	.	4G 4f	.
.	32qqbn/LLL	.	.	.
.	32qqcc/	.	.	.
.	32qqdd#X/JJJ	.	.	.
[8GGL	(8ccL	8ff	.	.
32GGLL]	16bnJk)	4Bn 4dn	.	.
32BBn	.	.	(16.bnLL	.
32Dn	16r	.	.	.
32FJJJ	.	.	.	.
32GLLL	8r	.	32ffJJk)	.
32Bn	.	.	.	.
32dn	.	.	.	.
32fJJJ	.	.	.	.
(16f#XLL	16r	8r	.	.
16gJJ)	16r	.	.	.
=34	=34	=34	=34	=34
.	.	.	(16ffLL	.
.	.	.	32eenJJk)	.
.	.	.	32r	.
.	.	.	(16ffLL	.
.	.	.	32ee-XJJk)	.
32r	(16B-XLL	(16gLL	32r	.
(32CCLLL	.	.	(16ee-LL	.
32C)	32gJJk)	32b-XJJk)	.	.
32CJJJ	32r	32r	32ddnJJk)	.
32r	(16A-LL	(16cLL	32r	.
(32FFLLL	.	.	(16ddLL	.
32F)	32cJJk)	32anJJk)	.	.
32FJJJ	32r	32r	32ccJJk)	.
32r	(16A-XLL	(16fLL	32r	.
(32BBnLLL	.	.	.	.
32Bn)	32fJJk)	32a-XJJk)	.	.
32BJJJ	32r	32r	.	.
32r	(16GLL	(16e-LL	.	.
(32CLLL	.	.	.	.
32c)	32e-JJk)	32gJJk)	.	.
32cJJJ	32r	32r	.	.
=35	=35	=35	=35	=35
.	.	.	(32ccLLL	.
.	.	.	32b-JJJ)	.
.	.	.	32r	.
.	.	.	32bn	.
.	.	.	32bLLL	.
.	.	.	32ccJJJ	.
.	.	.	32r	.
(32cLLL	(32e-LLL	(32gLLL	32dd-	.
32d-JJJ)	32gJJJ)	32fJJJ)	(32ddnLLL	.
32r	32r	32r	32ee-)	.
32dn	32f	32a-	(32ee-	.
(32dLLL	(32fLLL	(32a-LLL	32eenJJJ)	.
32e-JJJ)	32e-JJJ)	32gJJJ)	(32eeLLL	.
16r	32r	16r	32ff)	.
.	32bn	.	(32ff	.
!	!LO:TX:b:i:t=cresc.	!LO:TX:a:i:t=cresc.	!	!
8r	(32bLLL	32r	32ggJJJ)	.
.	32cc)	32dd-	.	.
!	!	!LO:TX:a:i:t=cresc.	!	!
.	(32cc	(32dd-LLL	.	.
.	32b-XJJJ)	32cc)	.	.
16.r	(32b-LLL	(32cc	.	.
.	32a-)	32b-JJJ)	.	.
.	(32a-	16r	.	.
!LO:TX:b:i:t=cresc.	!	!	!	!
64En	32cJJJ)	.	.	.
64r	.	.	.	.
=36	=36	=36	=36	=36
!!linebreak:original
.	.	.	(32ggLLL	.
.	.	.	32aa-)	.
.	.	.	(32aa-	.
.	.	.	32bbnJJJ)	.
.	.	.	(32bbLLL	.
.	.	.	32ccc)	.
.	.	.	(32ccc	.
!!linebreak:original
(32EnLLL	(32cLLL	(32b-LLL	32dddnJJJ)	.
32F)	32cc)	32a-)	(32dddLLL	.
(32F	(32cc	32a-	32eee-)	.
32DnJJJ)	32fJJJ)	32gJJJ	(32eee-	.
(32DLLL	(32fLLL	(32gLLL	32eeenJJJ)	.
32E-X)	32g)	32gg)	(32eeeLLL	.
(32E-	(32g	(32gg	32fff)	.
32BBnJJJ)	32GJJJ)	32ffJJJ)	(32ggg	.
(32BBLLL	(32GLLL	(32ffLLL	32aaa-JJJ)	.
32C)	32g)	32ee-)	.	.
(32C	(32g	(32ee-	.	.
32BB-XJJJ)	32cJJJ)	32eenJJJ)	.	.
(32BB-LLL	(32cLLL	(32eeLLL	.	.
32AA-)	32cc)	32ff)	.	.
(32GG	(32en	(32gg	.	.
32FFJJJ)	32fJJJ)	32aa-JJJ)	.	.
=37	=37	=37	=37	=37
.	.	.	8aaan'	f
.	.	.	8r	.
8FF#X'	8cn' 8e-X	8cc' 8aan	.	.
.	.	.	8f#X'	f
8r	8r	8r	.	.
.	.	.	8r	.
!	!	!	!	!
8AA-X'	8C' 8c	8c' 8e-	.	.
8r	8r	8r	.	.
=38	=38	=38	=38	=38
.	.	.	8.G 8.g	.
.	.	.	16qqgg/LL	.
.	.	.	16qqbb-/JJ	.
.	.	.	32.aa-LLL	.
8GG	16c	16e-	.	.
.	.	.	64ggJJJk	.
.	.	.	16gg	.
.	16r	16r	.	.
.	.	.	16qqgg/LL	.
.	.	.	16qqbb-/JJ	.
.	.	.	32.aa-LLL	.
8r	(8cL	(8e-L	.	.
.	.	.	64ggJJJk	.
.	.	.	16gg	.
.	.	.	16qqgg/LL	.
.	.	.	16qqbb-/JJ	.
.	.	.	32.aa-LLL	.
4r	8dn	8f	.	.
.	.	.	64ggJJJk	.
.	8e-J)	8gJ)	.	.
=39	=39	=39	=39	=39
.	.	.	16gg	.
.	.	.	16r	.
.	.	.	(8ffL	.
8r	(8fL	(8a-L	.	.
.	.	.	8ee-	.
16qqGG/LL	.	.	.	.
16qqBB-/JJ	.	.	.	.
32.AA-'LLL	8a-	8ddn	.	.
.	.	.	8dd-J)	.
64GG'JJJk	.	.	.	.
16GG	.	.	.	.
16qqGG/LL	.	.	.	.
16qqBB-/JJ	.	.	.	.
32.AA-'LLL	8g	8cc	.	.
64GG'JJJk	.	.	.	.
16GGLL	.	.	.	.
16qqGG/LL	.	.	.	.
16qqBB-/JJ	.	.	.	.
32.AA-'L	8bnJ)	8fJ)	.	.
64GG'JJJk	.	.	.	.
=40	=40	=40	=40	=40
.	.	.	16cc	.
.	.	.	32r	.
.	.	.	32gg	.
.	.	.	32r	.
16CC	.	.	(64ggLLLL	.
.	.	.	64bb-J)	.
.	.	.	32aa-'	.
16r	16cc	16e-	32gg'JJJ	.
.	.	.	32r	.
8r	16r	16r	(64ggLLLL	.
.	.	.	64bb-J)	.
.	.	.	32aa-'	.
.	(8cL	(8e-L	32gg'JJJ	.
.	.	.	32r	.
4r	.	.	(64ggLLLL	.
.	.	.	64bb-J)	.
.	.	.	32aa-'	.
.	8dn	8f	32gg'JJJ	.
.	8e-J)	8gJ)	.	.
=41	=41	=41	=41	=41
!!linebreak:original
.	.	.	16gg	.
.	.	.	16r	.
.	.	.	(8ffL	.
!!linebreak:original
16.r	.	.	.	.
!!linebreak:original
.	(8fL	(8a-L	.	.
32GG	.	.	8ee-	.
32r	.	.	.	.
(64GGLLLL	.	.	.	.
64BB-J)	.	.	.	.
32AA-'	8a-	8ddn	.	.
32GG'JJJ	.	.	8ddnJ)	.
32r	.	.	.	.
(64GGLLLL	.	.	.	.
64BB-J)	.	.	.	.
32AA-	8g	8cc	.	.
32GG'JJJ	.	.	.	.
32r	.	.	.	.
(64GGLLLL	.	.	.	.
64BBnJ)	.	.	.	.
32AAn'	8fJ)	8gJ)	.	.
32GG'JJJ	.	.	.	.
=42	=42	=42	=42	=42
.	.	.	(8ccL	pp
.	.	.	8ggJ)	.
(8CL	.	.	.	.
.	(32e-LLL	(8gL	.	.
.	32G	.	(8ggL	.
8E-	32c	.	.	.
.	32GJJJ)	.	.	.
.	(32cLLL	8cc	.	.
.	32G	.	8bbnJ)	.
8Dn	32g	.	.	.
.	32GJJJ)	.	.	.
.	(32fLLL	8bn	.	.
.	32G	.	.	.
8GGJ)	32dn	.	.	.
.	32GJJJ)	.	.	.
.	(32BnLLL	8ddnJ)	.	.
.	32G	.	.	.
.	32F	.	.	.
.	32GJJJ)	.	.	.
=43	=43	=43	=43	=43
.	.	.	(8.cccL	<
(8.CL	.	.	.	.
.	.	.	16ggJk)	[
.	(32E-LLL	(8.ee-L	.	.
.	32G	.	(8ggL	.
.	32c	.	.	.
.	32GJJJ)	.	.	.
!	!	!	!	!
16E-k	(32e-LLL	.	.	.
.	32G	.	8bbnJ)	.
8Dn	32g	16ccJk	.	.
.	32GJJJ)	.	.	.
!	!	!	!	!
.	(32fLLL	8bnL	.	.
.	32G	.	.	.
8GGJ)	32dn	.	.	.
.	32GJJJ)	.	.	.
.	(32BnLLL	8ddnJ)	.	.
.	32G	.	.	.
.	32f	.	.	.
.	32GJJJ)	.	.	.
=44	=44	=44	=44	=44
.	.	.	8ccc	.
.	.	.	16.r	.
8C	.	.	.	.
.	8e-	8cc	32aa-	.
.	.	.	16gg	.
8r	.	.	.	.
.	.	.	32r	.
.	16.r	16.r	32ff	.
.	.	.	16ee-	.
8r	.	.	.	.
.	32bn	32ff	32r	.
.	16cc	16ee-	32f	.
16.r	32r	32r	.	.
.	32a-	32dd-	.	.
.	16g	16cc	.	.
32G	.	.	.	.
.	32r	32r	.	.
.	32An	32f	.	.
=45	=45	=45	=45	=45
!!linebreak:original
.	.	.	8cc	.
.	.	.	8r	.
!!linebreak:original
8C	.	.	.	.
!!linebreak:original
.	8e-	8e-	.	.
.	.	.	8r	.
8r	.	.	.	.
.	16.r	16.r	.	.
.	.	.	16.r	.
16.r	.	.	.	.
.	32f	32a-	.	.
.	16e-	16g	32G 32g	.
32A-	.	.	.	.
16G	32r	32r	.	.
.	32dn	32f	.	.
32r	16c	16e-	.	.
32GG	.	.	.	.
.	32r	32r	.	.
.	32F	32Bn 32dn	.	.
=46	=46	=46	=46	=46
.	.	.	8G 8g	.
.	.	.	8r	.
8CC	.	.	.	.
.	8E-	8c	.	.
.	.	.	8ee-	.
8r	.	.	.	.
.	8r	8r	.	.
8B-	.	.	.	.
.	8d-	8g	.	.
8r	.	.	.	.
.	8r	8r	.	.
=47	=47	=47	=47	=47
.	.	.	(32ccLLL	.
.	.	.	32ee-	.
.	.	.	32a-	.
.	.	.	32ee-JJJ	.
.	.	.	32gLLL	.
.	.	.	32ee-	.
.	.	.	32a-	.
.	.	.	32ee-JJJ	.
.	.	.	32gLLL	.
*clefC4	*	*	*	*
(8A-L	.	.	32ee-	.
.	.	.	32a-	.
.	2r	2r	32ee-JJJ	.
.	.	.	32b-LLL	.
8c	.	.	32ee-	.
.	.	.	32cc	.
.	.	.	32ee-JJJ)	.
8.e-	.	.	.	.
16A-Jk)	.	.	.	.
=48	=48	=48	=48	=48
.	.	.	(32dd-LLL	.
.	.	.	32ee-	.
.	.	.	32cc	.
.	.	.	32ee-JJJ	.
.	.	.	32b-LLL	.
.	.	.	32ee-	.
.	.	.	32a-	.
.	.	.	32ee-JJJ	.
.	.	.	32gLLL	.
(8GL	.	.	32ee-	.
.	.	.	32b-	.
.	2r	4r	32ee-JJJ	.
.	.	.	32ffLLL	.
8B-	.	.	32ee-	.
.	.	.	32gg	.
.	.	.	32ee-JJJ)	.
8.e-	.	.	.	.
.	.	8r	.	.
16d-XJk)	.	16r	.	.
.	.	(16b-	.	.
=49	=49	=49	=49	=49
.	.	.	(32aa-LLL	.
.	.	.	32ccc	.
.	.	.	32ee-	.
.	.	.	32cccJJJ)	.
.	.	.	32r	.
.	.	.	(32cccLLL	.
.	.	.	32ee-	.
.	.	.	32cccJJJ)	.
.	.	.	32r	.
(16cLL	.	.	(32cccLLL	.
.	.	.	32ee-	.
16A-	2A-	8a-L)	32cccJJJ)	.
.	.	.	32r	.
16G	.	.	(32cccLLL	.
.	.	.	32ee-	.
16A-JJ	.	8ccJ	32cccJJJ)	.
16GLL	.	.	.	.
16A-	.	8.ee-L	.	.
16B-	.	.	.	.
16cJJ)	.	.	.	.
.	.	16a-Jk)	.	.
=50	=50	=50	=50	=50
!!linebreak:original
.	.	.	32r	.
.	.	.	(32bb-LLL	.
.	.	.	32ee-	.
.	.	.	32bb-JJJ)	.
.	.	.	32r	.
.	.	.	(32ddd-LLL	.
.	.	.	32ee-	.
.	.	.	32ddd-JJJ)	.
.	.	.	32r	.
!!linebreak:original
(16d-LL	.	.	(32ggLLL	.
.	.	.	32ee-	.
!!linebreak:original
16c	[2E-	(8gL	32ggJJJ)	.
.	.	.	32r	.
16B-	.	.	(32bb-LLL	.
.	.	.	32ee-	.
16A-JJ	.	8b-	32bb-JJJ)	.
16GLL	.	.	.	.
16B-	.	8.ee-	.	.
16E-	.	.	.	.
16D-JJ)	.	.	.	.
.	.	16gJk)	.	.
=51	=51	=51	=51	=51
.	.	.	32r	.
.	.	.	(32cccLLL	.
.	.	.	32ee-	.
.	.	.	32cccJJJ)	.
.	.	.	32r	.
.	.	.	(32cccLLL	.
.	.	.	32ee-	.
.	.	.	32cccJJJ)	.
.	.	.	32rb	.
*clefF4	*	*	*	*
(16CLL	.	.	(32cccLLL	.
.	.	.	32aa-	.
16BB-	8E-L]	(8a-L	32cccJJJ)	.
.	.	.	32r	.
16AA-	.	.	(32aa-LLL	.
.	.	.	32eee-	.
16GGJJ	(16A-L	8cc	32aa-JJJ)	.
16AA-LL	16GJJ	.	.	.
16GG-X	16A-LL	8ee-	.	.
16EE-	16G-X	.	.	.
16CCJJ)	16E-	8gg-XJ)	.	.
.	16CJJ)	.	.	.
=52	=52	=52	=52	=52
.	.	.	(16aa-KL	.
.	.	.	8ddd-	.
.	.	.	8fff)	.
(8DD-L	.	.	.	.
.	.	.	16aa-L	.
.	(32D-LLL	(8ffL	.	.
.	32A-	.	16aa-	.
8FF	32F	.	.	.
.	32A-JJJ)	.	16aa-JJ	.
.	32r	8dd-	.	.
.	(32A-LLL	.	.	.
8.AA-	32F	.	.	.
.	32A-JJJ)	.	.	.
.	32r	8.a-	.	.
.	(32A-LLL	.	.	.
.	32F	.	.	.
.	32A-JJJ	.	.	.
16DD-Jk)	32FLLL	.	.	.
.	32A-	.	.	.
.	32F	16ffJk)	.	.
.	32A-JJJ)	.	.	.
=53	=53	=53	=53	=53
.	.	.	(16aa-KL	.
.	.	.	8eee-	.
.	.	.	8ggg-X)	.
(8CCL	.	.	.	.
.	.	.	16aa-L	.
.	32r	(8gg-XL	.	.
.	(32A-LLL	.	16aa-	.
8EE-	32E-	.	.	.
.	32A-JJJ)	.	16aa-JJ	.
.	32r	8ee-	.	.
.	(32A-LLL	.	.	.
8.AA-	32E-	.	.	.
.	32A-JJJ)	.	.	.
.	32r	8.a-	.	.
.	(32A-LLL	.	.	.
.	32E-	.	.	.
.	32A-JJJ	.	.	.
16CCJk)	32E-LLL	.	.	.
.	32A-	.	.	.
.	32E-	16gg-Jk)	.	.
.	32A-JJJ)	.	.	.
=54	=54	=54	=54	=54
!!linebreak:original
!	!	!	!LO:TX:b:i:t=cresc.	!
.	.	.	2gg#X	.
!!linebreak:original
!LO:TX:a:i:t=cresc.	!	!	!	!
8CCL	.	.	.	.
!!linebreak:original
.	(4.C#X	32r	.	.
.	.	(32ee-LLL	.	.
!LO:TX:b:i:t=cresc.	!	!	!	!
8EEnJ	.	32cc#X	.	.
.	.	32ee-JJJ)	.	.
.	.	32r	.	.
.	.	(32ee-LLL	.	.
8GG#XL	.	32cc#	.	.
.	.	32ee-JJJ)	.	.
.	.	32r	.	.
.	.	(32eenLLL	.	.
16.C#XL	.	32cc#	.	.
.	.	32eeJJJ)	.	.
!	!LO:TX:a:i:t=cresc.	!	!	!
.	8c#X)	32r	.	.
32CC#XJJk	.	(32eeLLL	.	.
.	.	32cc#	.	.
.	.	32eeJJJ)	.	.
=55	=55	=55	=55	=55
.	.	.	2aan	.
8CC#XL	.	.	.	.
.	2c#X	32r	.	.
.	.	(32ff#XLLL	.	.
8FF#XJ	.	32cc#X	.	.
.	.	32ff#JJJ)	.	.
.	.	32r	.	.
.	.	(32ff#LLL	.	.
8AAnL	.	32cc#	.	.
.	.	32ff#JJJ)	.	.
.	.	32r	.	.
.	.	(32ff#LLL	.	.
16.C#XL	.	32cc#	.	.
.	.	32ff#JJJ)	.	.
.	.	32r	.	.
32CC#JJk	.	(32ff#LLL	.	.
.	.	32cc#	.	.
.	.	32ff#JJJ)	.	.
=56	=56	=56	=56	=56
.	.	.	2an 2aan	.
8DDnL	.	.	.	.
!	!	!	!	!
.	(8DnL 8dn	2an 2ff#X	.	.
8FF#X	.	.	.	.
.	8F#XJ 8d	.	.	.
8AAn	.	.	.	.
.	8AnL	.	.	.
16.DnL	.	.	.	.
.	16.dL	.	.	.
32DDJJk	.	.	.	.
.	32DJJk)	.	.	.
=57	=57	=57	=57	=57
.	.	.	(32cccLLL	sf
.	.	.	32aan)	.
.	.	.	32ff#X'	.
.	.	.	32ee-'JJJ	.
.	.	.	32cc'LLL	.
.	.	.	32ee-'	.
.	.	.	32b-'	.
.	.	.	32ddn'JJJ	.
.	.	.	32an'LLL	.
4.Dn	.	.	32cc'	.
.	.	.	32g'	.
!	!	!	!	!
.	4.Dn 4.dn	8an 8ff#X	32b-'JJJ	.
.	.	.	32f#X'LLL	.
.	.	.	32a'	.
.	.	.	32f#'	.
.	.	4r	32dd'JJJ	.
*clefG2	*	*	*	*
[8ddn	.	.	.	.
.	8D	8r	.	.
=58	=58	=58	=58	=58
.	.	.	32b-'	.
.	.	.	32dn'LLL	.
.	.	.	32B-'	.
.	.	.	32d'JJJ	.
.	.	.	32G'LLL	.
.	.	.	32d'	.
.	.	.	32B-'	.
.	.	.	32d'JJJ	.
.	.	.	32An'LLL	.
(8ddL]	.	.	32d'	.
.	.	.	32c'	.
!	!LO:TX:a:t=pizz.	!	!	!
.	8G	4r	32d'JJJ	.
.	.	.	32A'LLL	.
16.ffL	.	.	32d'	.
.	.	.	32c'	.
.	8r	.	32d'JJJ	.
32ee-JJk	.	.	.	.
8gL	.	.	.	.
.	8Dn	[4ddn	.	.
8f#XJ)	.	.	.	.
.	8r	.	.	.
=59	=59	=59	=59	=59
!!linebreak:original
.	.	.	32GLLL	.
.	.	.	32dn	.
.	.	.	32B-	.
.	.	.	32dJJJ	.
.	.	.	32AnLLL	.
.	.	.	32d	.
.	.	.	32c	.
.	.	.	32dJJJ	.
.	.	.	32GLLL	.
!!linebreak:original
(8gL	.	.	32d	.
.	.	.	32B-	.
!!linebreak:original
.	8B-L	4.dd]	32dJJJ	.
.	.	.	32GLLL	.
16.ddnL	.	.	32d	.
.	.	.	32Bn	.
.	8F#XJ	.	32dJJJ	.
32anJJk)	.	.	.	.
(8ccL	.	.	.	.
.	8GL	.	.	.
16bnJk)	.	.	.	.
16r	8FnJ	[8g	.	.
=60	=60	=60	=60	=60
.	.	.	8c	.
.	.	.	8r	.
.	.	.	4r	.
*clefF4	*	*	*	*
!LO:TX:b:t=pizz.	!	!	!	!
32E-LLL	.	.	.	.
!LO:TX:a:i:t=dim.	!	!	!	!
32C	.	.	.	.
32Dn	4E-	(8gL]	.	.
32E-JJJ	.	.	.	.
32FLLL	.	.	.	.
32D	.	.	.	.
32E-	.	16.b-L	.	.
32FJJJ	.	.	.	.
32GLLL	.	.	.	.
32GG	.	32a-JJk	.	.
32BBn	4r	8cL	.	.
32D	.	.	.	.
32G	.	.	.	.
32A-	.	.	.	.
32G	.	8BnJ)	.	.
32FJJJ	.	.	.	.
=61	=61	=61	=61	=61
.	.	.	(8ggL	.
.	.	.	16.gggL	.
.	.	.	32dddnJJk	.
.	.	.	8fffL	.
32E-LLL	.	.	.	.
32G	.	.	.	.
32E-	4r	4c	.	.
32CJJJ	.	.	8eeenJ)	.
32BBnLLL	.	.	.	.
32Dn	.	.	.	.
32BB	.	.	.	.
32GGJJJ	.	.	.	.
32CLLL	.	.	.	.
32CC	.	.	.	.
!	!LO:TX:a:t=arco	!	!	!
32EEn	(8b-L	4r	.	.
32GGJJJ	.	.	.	.
32CLLL	.	.	.	.
32GG	.	.	.	.
32EE	16.dd-XL	.	.	.
32CCJJJ	.	.	.	.
.	32gJJk	.	.	.
=62	=62	=62	=62	=62
.	.	.	4r	.
.	.	.	16r	.
32FFLLL	.	.	.	.
32FF	.	.	(8aa-XL	.
32AAn	8b-L	(8ee-L	.	.
32CJJJ	.	.	.	.
32FLLL	.	.	.	.
32C	.	.	16ggJk	.
32AA	8anJ)	16.gg-XL	.	.
32FFJJJ	.	.	.	.
32BB-LLL	.	.	.	.
32Dn	.	32ccJJk	.	.
32F	4r	16ee-KL	.	.
32B-JJJ	.	.	.	.
32BnLLL	.	8.ddnJ)	.	.
32G	.	.	.	.
32D	.	.	.	.
32BBnJJJ	.	.	.	.
=63	=63	=63	=63	=63
!!linebreak:original
.	.	.	16ffKL	.
.	.	.	8.ee-J)	.
.	.	.	4r	.
!!linebreak:original
32CLLL	.	.	.	.
32CC	.	.	.	.
!!linebreak:original
32EE-	4r	16r	.	.
32GGJJJ	.	.	.	.
32CLLL	.	8b-L	.	.
32AA-	.	.	.	.
32EE-	.	.	.	.
32CCJJJ	.	.	.	.
32DD-LLL	.	16a-Jk	.	.
32FF	.	.	.	.
32AA-	16r	16g-XKL	.	.
32D-JJJ	.	.	.	.
32DnLLL	(8cL	8.fJ	.	.
32BB-	.	.	.	.
32FF	.	.	.	.
32DDnJJJ	.	.	.	.
.	16B-Jk	.	.	.
=64	=64	=64	=64	=64
.	.	.	16r	.
.	.	.	(8dd-L	.
.	.	.	16ccJk	.
.	.	.	16b-LL	.
32EE-LLL	.	.	.	.
32GG	.	.	16a-)	.
32BB-	16A-KL	16r	.	.
32E-JJJ	.	.	(16ff	.
32EnLLL	8G)	(8d-L	.	.
32C	.	.	16ee-JJ	.
32GG	.	.	.	.
32EEnJJJ	.	.	.	.
32FFLLL	([16CJk	16cJk	.	.
32AA-	.	.	.	.
32C	16CLL]	16B-LL	.	.
[32FJJJ	.	.	.	.
32GGLLL	16D-)	16A-)	.	.
32BB-	.	.	.	.
32E-X	(16B-	(16f	.	.
32GJJJ	.	.	.	.
.	[16E-JJ	16e-JJ	.	.
=65	=65	=65	=65	=65
.	.	.	16dd-LL	.
.	.	.	16cc)	.
.	.	.	(16gg-X	.
.	.	.	16ffJJ	.
.	.	.	16ee-LL	.
32AA-LLL	.	.	.	.
32C	.	.	16dd-)	.
32E-	16E-LL]	16d-LL	.	.
32A-JJJ	.	.	(16bb-	.
32AAnLLL	16F)	16c)	.	.
32C	.	.	[16aanJJ)	.
32F	(16c	(16g-X	.	.
32AnJJJ	.	.	.	.
32BB-LLL	[16FJJ	16fJJ	.	.
32D-	.	.	.	.
32F	16FKL]	16e-LL	.	.
32B-JJJ	.	.	.	.
32CLLL	8G-X)	16d-)	.	.
32E-	.	.	.	.
32A	.	(16b-	.	.
32cJJJ	.	.	.	.
.	16g-XJk	[16anJJ)	.	.
=66	=66	=66	=66	=66
.	.	.	16aaKL]	.
.	.	.	8bb-	.
.	.	.	[16cccJk	.
.	.	.	16cccKL]	.
32D-LLL	.	.	.	.
32F	.	.	8ddd-	.
32B-	16fKL	16aKL]	.	.
32d-JJJ	.	.	.	.
32CLLL	8F	8b-	.	.
32F	.	.	[16ddd-Jk	.
32A-	.	.	.	.
32cJJJ	.	.	.	.
32BB-LLL	[16FJk	[16ccJk	.	.
32B-	.	.	.	.
32AA-	16FKL]	(16ccLL]	.	.
32A-JJJ	.	.	.	.
32GGLLL	8B-	16dd-	.	.
32G	.	.	.	.
32FF	.	16b-	.	.
32FJJJ	.	.	.	.
.	[16B-Jk	16a-XJJ)	.	.
=67	=67	=67	=67	=67
!!linebreak:original
.	.	.	16ddd-KL]	f
.	.	.	8eeen	.
.	.	.	[16eeeJk	.
.	.	.	16eeeKL]	.
!!linebreak:original
32EEnLLL	.	.	.	.
32En	.	.	8fff	.
!!linebreak:original
32DD-	16B-KL]	(16gLL	.	.
32D-	.	.	.	.
32CC	8g	16b-	.	.
32CJ	.	.	16a-Jk	.
16BB-JJ	.	16cc	.	.
16AA-LL 16B-	16gJk	16dd-JJ)	.	.
16GG 16A-	4c	(16ccLL	.	.
16FF 16G	.	16b-	.	.
32FFL 32F	.	16a-	.	.
32AA-JJJ	.	.	.	.
.	.	16cJJ) 16f	.	.
=68	=68	=68	=68	=68
.	.	.	8.g	p
.	.	.	16qqcc/LL	.
.	.	.	16qqee-/JJ	.
.	.	.	32.dd-LLL	.
.	.	.	64ccJJJk	.
.	.	.	16cc	.
!	!	!	!	!
16CC	.	.	.	.
.	.	.	16qqcc/LL	.
.	.	.	16qqee-/JJ	.
.	.	.	32.dd-LLL	.
!LO:TX:a:t=arco	!LO:TX:a:t=pizz.	!	!	!
16r	32CLLL	16c 16en	.	.
.	.	.	64ccJJJk	.
.	32En	.	16ccLL	.
8enL	32G	16r	.	.
.	.	.	16qqcc/LL	.
.	.	.	16qqee-/JJ	.
.	32cJJJ	.	32.dd-L	.
.	32CLLL	8gL	.	.
.	.	.	64ccJJJk	.
.	32F	.	.	.
8e	32A-	.	.	.
.	32cJJJ	.	.	.
.	32CLLL	(8g	.	.
.	32F	.	.	.
8fJ	32A-	.	.	.
.	32cJJJ	.	.	.
.	32CLLL	8a-J	.	.
.	32G	.	.	.
.	32A-	.	.	.
.	32cJJJ	.	.	.
=69	=69	=69	=69	=69
.	.	.	16cc	.
!	!	!	!LO:TX:a:t=pizz.	!
.	.	.	16r	.
.	.	.	32cLLL	.
.	.	.	32g	.
.	.	.	32b-	.
.	.	.	32ccJJJ	.
.	.	.	32cLLL	.
8g	.	.	32g	.
.	.	.	32b-	.
.	32CLLL	8b-)	32ccJJJ	.
.	32G	.	32cLLL	.
16r	32B-	.	32f	.
.	32cJJJ	.	32a-	.
16qqCC/LL	.	.	.	.
16qqEE-/JJ	.	.	.	.
32.DD-LLL	8r	8B-L 8g	32ccJJJ	.
64CCJJJk	.	.	.	.
16CC	.	.	.	.
16qqCC/LL	.	.	.	.
16qqEE-/JJ	.	.	.	.
32.DD-LLL	8r	(8B- 8g	.	.
64CCJJJk	.	.	.	.
16CCLL	.	.	.	.
16qqCC/LL	.	.	.	.
!	!LO:TX:b:t=arco	!	!	!
16qqEE-/JJ	.	.	.	.
32.DD-L	(8F	8A-J 8f	.	.
64CCJJJk	.	.	.	.
=70	=70	=70	=70	=70
.	.	.	32cLLL	.
.	.	.	32en	.
.	.	.	32g	.
.	.	.	32ccJJJ	.
.	.	.	32cLLL	.
.	.	.	32e	.
.	.	.	32g	.
.	.	.	32ccJJJ	.
.	.	.	32cLLL	.
8CC	.	.	32e	.
.	.	.	32g	.
.	8.C)	8G) 8en	32ccJJJ	.
.	.	.	32cLLL	.
8r	.	.	32e	.
.	.	.	32g	.
.	.	8r	32ccJJJ	.
.	16qqC/LL	.	.	.
.	16qqE-/JJ	.	.	.
4r	32.D-LLL	.	.	.
.	64CJJJk	.	.	.
.	16C	4r	.	.
.	16qqC/LL	.	.	.
.	16qqE-/JJ	.	.	.
.	32.D-LLL	.	.	.
.	64CJJJk	.	.	.
.	16CLL	.	.	.
.	16qqC/LL	.	.	.
.	16qqE-/JJ	.	.	.
.	32.D-L	.	.	.
.	64CJJJk	.	.	.
=71	=71	=71	=71	=71
!!linebreak:original
.	.	.	32cLLL	.
.	.	.	32en	.
.	.	.	32g	.
.	.	.	32ccJJJ	.
.	.	.	4r	.
!!linebreak:original
2r	.	.	.	.
!!linebreak:original
.	[8C	8r	.	.
!	!	!	!LO:TX:a:i:t=poco rit.	!
!	!	!LO:TX:a:t=pizz.	!LO:TX:b:i:t=poco rit.	!
.	4.C]	32AnLLL	.	.
.	.	32c	.	.
.	.	32e-	.	.
.	.	32g-XJJJ	.	.
.	.	32ALLL	.	.
.	.	32c	.	.
.	.	32e-	.	.
.	.	32g-JJJ	.	.
.	.	32A-XLLL	.	.
.	.	32c	.	.
!LO:TX:a:i:t=poco rit.	!	!	!	!
.	.	32g-JJJ	.	.
=72	=72	=72	=72	=72
!	!	!	!LO:TX:a:i:t=a tempo.	!
!	!	!	!LO:TX:a:t=arco	!
.	.	.	8.a-L	.
.	.	.	16qqdd-/LL	.
.	.	.	16qqff/JJ	.
.	.	.	32.ee-LL	.
.	.	.	64dd-JJJk	.
.	.	.	16dd-LL	.
.	.	.	16qqdd-/LL	.
.	.	.	16qqff/JJ	.
.	.	.	32.ee-L	.
.	.	.	64dd-JJJk	.
.	.	.	16dd-LL	.
!LO:TX:a:i:t=a tempo.	!	!	!	!
(4.F	.	.	.	.
.	.	.	16qqdd-/LL	.
.	.	.	16qqff/JJ	.
.	.	.	32.ee-L	.
!	!LO:TX:a:i:t=a tempo.	!LO:TX:a:i:t=a tempo.	!	!
.	2D-	32A-LLL	.	.
.	.	.	64dd-JJJk	.
.	.	32c	.	.
.	.	32d-	.	.
.	.	32fJJJ	.	.
.	.	32A-LLL	.	.
.	.	32d-	.	.
.	.	32f	.	.
.	.	32a-JJJ	.	.
.	.	32A-LLL	.	.
.	.	32d-	.	.
8G-X)	.	32f	.	.
.	.	32a-JJJ	.	.
.	.	32B-LLL	.	.
.	.	32d-	.	.
.	.	32g-X	.	.
.	.	32b-JJJ	.	.
=73	=73	=73	=73	=73
!	!	!	!LO:TX:a:i:t=molto cantabile.	!
.	.	.	[4dd-	.
.	.	.	(16dd-LL]	.
.	.	.	16ff	.
.	.	.	16dd-	.
(2D-	.	.	.	.
.	.	.	16ffJJ)	.
.	(48FLLL	8a-	.	.
.	48A-	.	.	.
.	48F	.	.	.
.	48A-	.	.	.
.	48F	.	.	.
.	48A-JJJ	.	.	.
.	48FLLL	4r	.	.
.	48A-	.	.	.
.	48F	.	.	.
.	48A-	.	.	.
.	48F	.	.	.
.	48A-JJJ)	.	.	.
.	(48FLLL	.	.	.
.	48A-	.	.	.
.	48F	.	.	.
.	48A-	.	.	.
.	48F	.	.	.
.	48A-JJJ	.	.	.
.	48FLLL	.	.	.
.	48A-	.	.	.
.	48F	.	.	.
.	48A-	.	.	.
.	48F	.	.	.
.	48A-JJJ)	.	.	.
=74	=74	=74	=74	=74
.	.	.	([4aa-	.
.	.	.	16aa-LL]	.
.	.	.	16gg-X	.
.	.	8A- 8g-X	.	.
.	.	.	16ee-	.
4C	.	.	.	.
.	.	.	16ffJJ)	.
.	(48E-LLL	8r	.	.
.	48A-	.	.	.
.	48E-	.	.	.
.	48A-	.	.	.
.	48E-	.	.	.
.	48A-JJJ	.	.	.
.	48E-LLL	8c	.	.
.	48A-	.	.	.
.	48E-	.	.	.
4AA-	48A-	.	.	.
.	48E-	.	.	.
.	48A-JJJ)	.	.	.
.	(48CLLL	8r	.	.
.	48E-	.	.	.
.	48C	.	.	.
.	48E-	.	.	.
.	48C	.	.	.
.	48E-JJJ	.	.	.
.	48CLLL	.	.	.
.	48F	.	.	.
.	48C	.	.	.
.	48F	.	.	.
.	48C	.	.	.
.	48FJJJ)	.	.	.
=75	=75	=75	=75	=75
!!linebreak:original
.	.	.	[4dd-	.
.	.	.	16dd-LL]	.
.	.	.	(16b-	.
!!linebreak:original
.	.	8d- 8f	.	.
.	.	.	16.cc	.
!!linebreak:original
4BB-	.	.	.	.
!!linebreak:original
.	(48FLLL	8r	32dd-JJk)	.
.	48D-	.	.	.
.	48F	.	.	.
.	48D-	.	.	.
.	48F	.	.	.
.	48D-	.	.	.
.	48F	8d- 8e-	.	.
.	48D-	.	.	.
.	48F	.	.	.
4GG-X	48D-	.	.	.
.	48F	.	.	.
.	48D-JJJ)	.	.	.
.	(48E-LLL	8r	.	.
.	48D-	.	.	.
.	48E-	.	.	.
.	48D-	.	.	.
.	48E-	.	.	.
.	48D-	.	.	.
.	48E-	.	.	.
.	48D-	.	.	.
.	48E-	.	.	.
.	48D-	.	.	.
.	48E-	.	.	.
.	48D-JJJ)	.	.	.
=76	=76	=76	=76	=76
.	.	.	(16dd-KL	.
.	.	.	8a-J)	.
.	.	.	16qqa-/LL	.
.	.	.	16qqcc/JJ	.
.	.	.	32.b-LLL	.
.	.	.	64a-JJJk	.
.	.	.	16a-LL	.
.	.	.	16qqa-/LL	.
.	.	.	16qqcc/JJ	.
.	.	.	32.b-L	.
.	.	8d- 8f	.	.
.	.	.	64a-JJJk	.
.	.	.	16a-LL	.
2AA-)	.	.	.	.
.	.	.	16qqa-/LL	.
.	.	.	16qqcc/JJ	.
.	.	.	32.b-L	.
.	(48FLLL	8r	.	.
.	.	.	64a-JJJk	.
.	48D-	.	.	.
.	48F	.	.	.
.	48D-	.	.	.
.	48F	.	.	.
.	48D-	.	.	.
.	48F	8r	.	.
.	48D-	.	.	.
.	48F	.	.	.
.	48D-	.	.	.
.	48F	.	.	.
.	48D-JJJ)	.	.	.
!	!	!LO:TX:a:t=arco	!	!
.	(48CLLL	8ee-	.	.
.	48G-X	.	.	.
.	48C	.	.	.
.	48G-	.	.	.
.	48C	.	.	.
.	48G-	.	.	.
.	48C	.	.	.
.	48G-	.	.	.
.	48C	.	.	.
.	48G-	.	.	.
.	48C	.	.	.
.	48G-JJJ)	.	.	.
=77	=77	=77	=77	=77
.	.	.	(8a-	.
.	.	.	4ff)	.
.	.	(48dd-LLL	.	.
.	.	48a-	.	.
.	.	.	(32ffLLL	.
.	.	48dd-	.	.
.	.	.	16qqgg/LL	.
.	.	.	16qqff/	.
.	.	.	16qeen/JJ	.
[4D-	.	48a-	32ff	.
.	.	48dd-	.	.
.	.	.	32aa-	.
.	.	48a-	.	.
.	16F	48dd-	32gg-XJJJ)	.
.	.	48a-	.	.
.	.	48dd-	.	.
.	(16fLL	48a-	.	.
.	.	48dd-	.	.
.	.	48a-JJJ)	.	.
.	16d-	(48dd-LLL	.	.
.	.	48a-	.	.
.	.	48dd-	.	.
(16D-LL]	16fJJ)	48a-	.	.
.	.	48dd-	.	.
.	.	48a-	.	.
16F	[4a-	48dd-	.	.
.	.	48a-	.	.
.	.	48dd-	.	.
16D-	.	48a-	.	.
.	.	48dd-	.	.
.	.	48a-JJJ)	.	.
16FJJ)	.	.	.	.
=78	=78	=78	=78	=78
!!linebreak:original
.	.	.	(8ffL	.
.	.	.	[8ee-J)	.
.	.	.	(8ee-L]	.
!!linebreak:original
.	.	(48ccLLL	.	.
.	.	48a-	.	.
.	.	.	32gg-XLL	.
.	.	48cc	.	.
!!linebreak:original
.	.	.	16qqaa-/LL	.
.	.	.	16qqgg-/	.
.	.	.	16qqff/JJ	.
(4A-	.	48a-	32gg-	.
.	.	48cc	.	.
.	.	.	32bb-	.
.	.	48a-JJJ	.	.
!!linebreak:original
.	16a-LL]	48ccLLL	32aa-JJJ)	.
.	.	48a-	.	.
.	.	48cc	.	.
.	(16c	48a-	.	.
.	.	48cc	.	.
.	.	48a-JJJ)	.	.
.	16A-	(48b-LLL	.	.
.	.	48a-	.	.
.	.	48b-	.	.
16E-LL	16cJJ)	48g-X	.	.
.	.	48b-	.	.
.	.	48g-JJJ)	.	.
16G-X	(4e-	(48ee-LLL	.	.
.	.	48b-	.	.
.	.	48ee-	.	.
16E-	.	48b-	.	.
.	.	48ee-	.	.
.	.	48b-JJJ)	.	.
16G-JJ)	.	.	.	.
=79	=79	=79	=79	=79
.	.	.	(8gg-XL	.
.	.	.	[8ffJ)	.
.	.	.	(8ffL]	.
.	.	(48dd-LLL	.	.
.	.	48b-	.	.
.	.	.	32aa-LL	.
.	.	48dd-	.	.
.	.	.	16qqbb-/LL	.
.	.	.	16qqaa-/	.
.	.	.	16qqggn/JJ	.
(4B-	.	48b-	32aa-	.
.	.	48dd-	.	.
.	.	.	32ccc	.
.	.	48b-JJJ	.	.
.	16B-LL)	48dd-LLL	32bb-JJJ)	.
.	.	48b-	.	.
.	.	48dd-	.	.
.	(16d-	48b-	.	.
.	.	48dd-	.	.
.	.	48b-JJJ)	.	.
.	16B-	(48ccLLL	.	.
.	.	48a-	.	.
.	.	48cc	.	.
16FLL	16d-JJ	48a-	.	.
.	.	48cc	.	.
.	.	48a-JJJ)	.	.
16AA-	16fLL	(48ffLLL	.	.
.	.	48cc	.	.
.	.	48ff	.	.
16FF	16A-	48cc	.	.
.	.	48ff	.	.
.	.	48ccJJJ)	.	.
16AA-JJ)	16F	.	.	.
.	16A-JJ)	.	.	.
=80	=80	=80	=80	=80
!	!	!	!LO:TX:b:i:t=cresc.	!
.	.	.	(8aa-L	.
.	.	.	8ggJ	.
.	.	.	8aa-L	.
.	.	(48ffLLL	.	.
.	.	48cc	.	.
.	.	.	8bbnJ)	.
.	.	48ff	.	.
!LO:TX:b:i:t=cresc.	!	!	!	!
(4C	.	48cc	.	.
.	.	48ff	.	.
.	.	48ccJJJ)	.	.
!	!LO:TX:b:i:t=cresc.	!	!	!
!	!LO:TX:a:i:t=cresc.	!	!	!
.	(4c	(48eenLLL	.	.
.	.	48cc	.	.
.	.	48ee	.	.
.	.	48cc	.	.
.	.	48ee	.	.
.	.	48ccJJJ)	.	.
.	.	(48ffLLL	.	.
.	.	48cc	.	.
.	.	48ff	.	.
8AA-L	.	48cc	.	.
.	.	48ff	.	.
.	.	48ccJJJ)	.	.
.	8A-L	(48a-LLL	.	.
.	.	48f	.	.
.	.	48a-	.	.
8FFJ)	.	48f	.	.
.	.	48a-	.	.
.	.	48fJJJ)	.	.
.	8FJ)	.	.	.
=81	=81	=81	=81	=81
!!linebreak:original
.	.	.	(8.cccL	p
!	!	!	!LO:TX:b:i:t=cresc.	!
.	.	.	16bbnJk	.
.	.	.	8cccL	.
!!linebreak:original
.	.	(48enLLL	.	.
.	.	48g	.	.
.	.	.	8dddnJ)	sf
.	.	48e	.	.
!!linebreak:original
!	!	!	!	!
(8.CCL	.	48g	.	.
.	.	48e	.	.
.	.	48gJJJ	.	.
!!linebreak:original
.	(8.CL	48eLLL	.	.
.	.	48g	.	.
!	!	!LO:TX:b:i:t=cresc.	!	!
.	.	48e	.	.
.	.	48a-	.	.
.	.	48f	.	.
.	.	48a-JJJ)	.	.
!LO:TX:b:i:t=cresc.	!	!	!	!
16FFJk	.	(48eLLL	.	.
.	.	48g	.	.
.	.	48e	.	.
!	!LO:TX:b:i:t=cresc.	!	!	!
8CCL	16FJk	48g	.	.
.	.	48e	.	.
.	.	48gJJJ)	.	.
.	8CL	(48bnLLL	.	.
.	.	48f	.	.
.	.	48b	.	.
8GGJ)	.	48f	.	.
.	.	48b	.	.
.	.	48fJJJ)	.	.
.	8GJ)	.	.	.
=82	=82	=82	=82	=82
!	!	!	!LO:TX:b:i:t=cresc.	!
.	.	.	(8.cccL	p
.	.	.	16bbnJk	.
.	.	.	8cccL	.
.	.	(48enLLL	.	.
.	.	48g	.	.
.	.	.	8dddnJ)	sf
.	.	48e	.	.
!LO:TX:a:i:t=cresc.	!	!	!	!
(8.CCL	.	48g	.	.
.	.	48e	.	.
.	.	48gJJJ	.	.
!	!LO:TX:a:i:t=cresc.	!	!	!
.	(8.CL	48eLLL	.	.
.	.	48g	.	.
.	.	48e	.	.
.	.	48a-	.	.
.	.	48f	.	.
.	.	48a-JJJ)	.	.
16FFJk	.	(48eLLL	.	.
.	.	48g	.	.
.	.	48e	.	.
8CCL	16FJk	48g	.	.
.	.	48e	.	.
.	.	48gJJJ)	.	.
.	8CL	(48bnLLL	.	.
.	.	48f	.	.
.	.	48b	.	.
8GGJ)	.	48f	.	.
.	.	48b	.	.
.	.	48fJJJ)	.	.
.	8GJ)	.	.	.
=83	=83	=83	=83	=83
!	!	!	!LO:TX:b:i:t=dim.	!
.	.	.	(48cccLLL	p
.	.	.	48gg	.
.	.	.	48cccJJJ)	.
.	.	.	16r	.
.	.	.	(48bb-LLL	.
.	.	.	48gg	.
.	.	.	48bb-JJJ)	.
.	.	.	16r	.
.	.	.	(48ggLLL	.
.	.	.	48ee-	.
.	.	.	48ggJJJ)	.
.	.	.	16r	.
!	!	!LO:TX:b:i:t=dim.	!	!
.	.	(48enLLL	.	.
.	.	48g	.	.
.	.	.	(48ee-LLL	.
.	.	48e	.	.
.	.	.	48b-	.
!LO:TX:a:i:t=dim.	!	!	!	!
8CC	.	48b-	.	.
.	.	.	48ee-JJJ)	.
.	.	48g	.	.
.	.	.	16r	.
.	.	48b-JJJ)	.	.
.	16C	(48gLLL	.	.
.	.	48b-	.	.
.	.	48g	.	.
.	32qqE-/	.	.	.
8r	32.D-'LLL	48b-	.	.
.	.	48g	.	.
.	.	48b-JJJ)	.	.
.	64C'JJJk	.	.	.
.	16C	(48gLLL	.	.
.	.	48b-	.	.
.	.	48g	.	.
.	16qqE-/	.	.	.
4r	32.D-'LLL	48b-	.	.
.	.	48g	.	.
.	.	48b-JJJ)	.	.
.	64C'JJJk	.	.	.
.	16C	(48gLLL	.	.
.	.	48b-	.	.
.	.	48g	.	.
.	32qqE-/	.	.	.
.	32.D-'LLL	48b-	.	.
.	.	48g	.	.
.	.	48b-JJJ)	.	.
.	64C'JJJk	.	.	.
.	16C	.	.	.
.	16qqE-/	.	.	.
.	32.D-'LLL	.	.	.
.	64C'JJJk	.	.	.
=84	=84	=84	=84	=84
!!linebreak:original
!	!	!	!	!LO:DY:a
.	.	.	16r	p
.	.	.	(48dd-LLL	pp
.	.	.	48b-	.
.	.	.	48dd-JJJ)	.
.	.	.	16r	.
.	.	.	(48dd-LLL	.
.	.	.	48b-	.
.	.	.	48dd-JJJ)	.
.	.	.	16rb	.
.	.	.	(48dd-LLL	.
.	.	.	48b-	.
!!linebreak:original
.	.	(48gLLL	.	.
.	.	.	48dd-JJJ)	.
.	.	48b-	.	.
.	.	.	(48b-LLL	.
.	.	48gJJJ)	.	.
.	.	.	48cc	.
!!linebreak:original
!	!	!	!	!
2r	.	16r	.	.
.	.	.	48bn	.
.	.	.	48cc	.
.	.	.	48b	.
!!linebreak:original
.	32CLLL	(48gLLL	.	.
.	.	.	48ccJJJ)	.
.	.	48b-	.	.
!	!LO:TX:a:i:t=sempre stacc.	!	!LO:TX:a:i:t=sotto voce.	!
.	32C	.	.	.
.	.	48gJJJ)	.	.
.	32C	16r	.	.
.	32CJJJ	.	.	.
.	32CLLL	(48gLLL	.	.
.	.	48b-	.	.
.	32C	.	.	.
.	.	48gJJJ)	.	.
.	32C	16r	.	.
.	32CJJJ	.	.	.
.	4C	48r	.	.
.	.	(48enLLL	.	.
.	.	48g	.	.
.	.	48e	.	.
.	.	48g	.	.
.	.	48eJJJ)	.	.
=85	=85	=85	=85	=85
.	.	.	(8ccL	.
!	!	!	!LO:TX:a:i:t=cresc.	!
.	.	.	16.ee-L	.
.	.	.	32dd-JJk	.
.	.	.	8fL	.
.	.	(48a-LLL	.	.
.	.	48f	.	.
.	.	.	8enJ)	.
.	.	48a-	.	.
!LO:TX:a:t=pizz.	!	!	!	!
8FFL	.	48f	.	.
.	.	48a-	.	.
.	.	48fJJJ)	.	.
.	2C	(48fLLL	.	.
.	.	48c	.	.
.	.	48f	.	.
8AA-J	.	48c	.	.
.	.	48f	.	.
.	.	48cJJJ)	.	.
.	.	(48cLLL	.	.
.	.	48B-	.	.
.	.	48c	.	.
8GGL	.	48B-	.	.
.	.	48c	.	.
.	.	48B-JJJ)	.	.
.	.	(48cLLL	.	.
.	.	48G	.	.
.	.	48c	.	.
8BB-J	.	48G	.	.
.	.	48c	.	.
.	.	48GJJJ)	.	.
=86	=86	=86	=86	=86
.	.	.	(8fL	.
.	.	.	16qqg/LL	.
.	.	.	16qqf/	.
.	.	.	16qen/	.
.	.	.	16qqf/JJ	.
.	.	.	16.ccL	.
.	.	.	32gJJk)	.
.	.	.	(8b-L	.
.	.	(48cLLL	.	.
.	.	48A-	.	.
.	.	.	8a-J	.
.	.	48c	.	.
16AA-LL	.	48a-	.	.
.	.	48c	.	.
.	.	48a-JJJ)	.	.
16FF	2C	(48gLLL	.	.
.	.	48c	.	.
.	.	48g	.	.
16EEn	.	48c	.	.
.	.	48g	.	.
.	.	48cJJJ)	.	.
16CCJJ	.	(48gLLL	.	.
.	.	48c	.	.
.	.	48g	.	.
8FF	.	48en	.	.
.	.	48c	.	.
.	.	48eJJJ)	.	.
.	.	(48fLLL	.	.
.	.	48c	.	.
.	.	48f	.	.
8r	.	48c	.	.
.	.	48f	.	.
.	.	48cJJJ)	.	.
=87	=87	=87	=87	=87
*	*	*	*^	*
!!linebreak:original
.	.	.	8ccL)	4..ryy	.
.	.	.	32ffLL	.	.
.	.	.	32aa-	.	.
.	.	.	32ccc	.	.
.	.	.	32fffJJJ)	.	.
.	.	.	(8fffL	.	.
!!linebreak:original
.	.	(48a-LLL	.	.	.
.	.	48c	.	.	.
.	.	.	16eeenL	.	.
.	.	48a-	.	.	.
!!linebreak:original
8FFL	.	48cc	.	.	.
.	.	48a-	.	.	.
.	.	.	.	1%0fff\yy	.
.	.	.	.	1%0ggg\yy	.
.	.	.	.	1%0fff\yy	.
*	*	*	*v	*v	*
.	.	.	16fffTJJ	.
.	.	48ccJJJ)	.	.
!!linebreak:original
.	2C	(48a-LLL	.	.
.	.	48cc	.	.
.	.	.	16qqeee/LL)	.
.	.	.	16qqfff/JJ	.
.	.	.	.	.
.	.	48cc	.	.
.	.	48a-	.	.
.	.	48ccJJJ)	.	.
16AA-Jk	.	(48b-LLL	.	.
.	.	48cc	.	.
.	.	48b-	.	.
8GGL	.	48cc	.	.
.	.	48b-	.	.
.	.	48ccJJJ)	.	.
.	.	(48b-LLL	.	.
.	.	48cc	.	.
.	.	48b-	.	.
16r	.	48a-	.	.
.	.	48cc	.	.
.	.	48a-JJJ)	.	.
16FFJk	.	.	.	.
=88	=88	=88	=88	=88
.	.	.	(16gggLL	.
.	.	.	16cc)	.
.	.	.	(16cc'	.
.	.	.	16bn'JJ)	.
!	!	!	!LO:TX:b:i:t=cresc.	!
.	.	.	(8bL	.
.	.	(48gLLL	.	.
.	.	48cc	.	.
.	.	.	8ccJ)	.
.	.	48g	.	.
16EEnLL	.	48en	.	.
.	.	48g	.	.
.	.	48eJJJ)	.	.
16CC	.	(48a-LLL	.	.
.	.	48f	.	.
.	.	48a-	.	.
16FF	.	48f	.	.
.	.	48a-	.	.
.	.	48fJJJ)	.	.
!	!	!LO:TX:b:i:t=cresc.	!	!
16AA-JJ	.	(48a-LLL	.	.
.	.	48f	.	.
.	.	48a-	.	.
!LO:TX:b:i:t=cresc.	!	!	!	!
8C	.	48f	.	.
.	.	48a-	.	.
.	.	48fJJJ)	.	.
.	.	(48eLLL	.	.
.	.	48g	.	.
.	.	48e	.	.
8r	.	48g	.	.
.	.	48e	.	.
.	.	48gJJJ)	.	.
=89	=89	=89	=89	=89
!	!LO:TX:b:i:t=cresc.	!	!	!
.	.	.	(8dd-L	.
.	.	.	16.b-L	.
.	.	.	32ee-JJk)	.
.	.	.	(8.ee-L	>
!	!	!	!	!
.	.	(48gLLL	.	.
.	.	48e-	.	.
.	.	48g	.	.
8BB-L	.	48e-	.	.
.	.	48g	.	.
.	.	.	16ccJk)	.
.	.	48e-JJJ)	.	.
!	!	!	!	!
.	2E-X	(48gLLL	.	.
.	.	48e-	.	.
.	.	48g	.	.
8D-	.	48e-	.	.
.	.	48g	.	.
.	.	48e-JJJ)	.	.
.	.	(48a-LLL	.	.
.	.	48e-	.	.
.	.	48a-	.	.
8CJ	.	48e-	.	.
.	.	48a-	.	.
.	.	48e-JJJ)	.	.
.	.	(48a-LLL	.	.
.	.	48e-	.	.
.	.	48a-	.	.
16r	.	48e-	.	.
.	.	48a-	.	.
.	.	48e-JJJ)	.	.
16AA-	.	.	.	.
=90	=90	=90	=90	=90
!!linebreak:original
!	!	!	!LO:TX:b:i:t=cresc.	!
.	.	.	(32ee-LLL	]
.	.	.	32dd-)	.
.	.	.	(32cc'	.
.	.	.	32b-'JJJ)	.
.	.	.	(32an'LLL	.
.	.	.	32b-'	.
.	.	.	32ff'	.
.	.	.	32ee-'JJJ)	.
.	.	.	(8.ee-L	.
!!linebreak:original
!	!	!LO:TX:b:i:t=cresc.	!	!
.	.	(48gLLL	.	.
.	.	48e-	.	.
.	.	48g	.	.
!!linebreak:original
!LO:TX:b:i:t=cresc.	!	!	!	!
16BB-LL	.	48e-	.	.
.	.	48g	.	.
.	.	.	16eee-Jk)	.
.	.	48e-JJJ	.	.
!!linebreak:original
!	!LO:TX:b:i:t=cresc.	!	!	!
16EE-	4E-X	48gLLL	.	.
.	.	48e-	.	.
.	.	48g	.	.
16D-	.	48e-	.	.
.	.	48g	.	.
.	.	48e-JJJ)	.	.
16BB-JJ	.	(48a-LLL	.	.
.	.	48e-	.	.
.	.	48a-	.	.
8CL	.	48e-	.	.
.	.	48a-	.	.
.	.	48e-JJJ	.	.
.	32E-LLL	48a-LLL	.	.
.	.	48e-	.	.
.	32E-	.	.	.
.	.	48a-	.	.
16r	32E-	48cc	.	.
.	.	48a-	.	.
.	32E-JJJ	.	.	.
.	.	48ccJJJ)	.	.
16AA-Jk	32CLLL	.	.	.
.	32C	.	.	.
.	32C	.	.	.
.	32CJJJ	.	.	.
=91	=91	=91	=91	=91
.	.	.	(8.eenL	f
.	.	.	16eeenJk)	.
.	.	.	8..ffL 8..fff	f
.	.	(48b-LLL	.	.
.	.	48cc	.	.
.	.	48b-	.	.
!	!	!	!	!
8GGL	.	48cc	.	.
.	.	48b-	.	.
.	.	48ccJJJ	.	.
.	4C	48b-LLL	32fJkk	.
.	.	48cc	.	.
.	.	48b-	.	.
16r	.	48cc	.	.
.	.	48b-	.	.
.	.	48ccJJJ)	.	.
16CCJk	.	(48a-LLL	.	.
.	.	48cc	.	.
.	.	48a-	.	.
8AA-	.	48f	.	.
.	.	48a-	.	.
.	.	48fJJJ	.	.
.	4C	48a-LLL	.	.
.	.	48f	.	.
.	.	48a-	.	.
32r	.	48f	.	.
.	.	48a-	.	.
32FFLLL	.	.	.	.
.	.	48fJJJ)	.	.
32GG	.	.	.	.
32AA-JJJ	.	.	.	.
=92	=92	=92	=92	=92
!	!	!	!LO:TX:b:i:t=morendo.	!
.	.	.	(8dd-L	]
.	.	.	8cc)	.
.	.	.	8fJ	p
.	.	(48gLLL	.	.
.	.	48f	.	.
.	.	.	8r	.
.	.	48g	.	.
!LO:TX:b:i:t=morendo.	!	!	!	!
!LO:TX:a:i:t=morendo.	!	!	!	!
8BB-L	.	48f	.	.
.	.	48g	.	.
.	.	48fJJJ	.	.
!	!LO:TX:a:i:t=morendo.	!	!	!
.	32CLLL	48gLLL	.	.
.	.	48en	.	.
.	32C	.	.	.
.	.	48g	.	.
8C	32C	48e	.	.
.	.	48g	.	.
.	32C	.	.	.
.	.	48eJJJ)	.	.
.	32C	(8fL	.	.
.	32C	.	.	.
8D-J	32C	.	.	.
.	32CJJJ	.	.	.
.	8F	[8bb-J)	.	.
8r	.	.	.	.
.	8r	.	.	.
=93	=93	=93	=93	=93
.	.	.	(4cc	.
!	!	!	!LO:TX:b:i:t=cresc.	!
.	.	.	8dd-L	.
.	.	(8bb-L]	.	.
.	.	.	[8aa-J)	.
(4e-	.	.	.	.
!	!LO:TX:b:t=arco	!LO:TX:b:i:t=cresc.	!	!
.	(4g-X	8aa-J	.	.
.	.	8dd-L	.	.
!LO:TX:b:i:t=cresc.	!	!	!	!
8fL	.	.	.	.
!	!LO:TX:b:i:t=cresc.	!	!	!
.	8a-L	8ccJ)	.	.
8e-J)	.	.	.	.
.	8gnJ)	.	.	.
=94	=94	=94	=94	=94
!!linebreak:original
.	.	.	8aa-L]	.
.	.	.	[8ggJ	.
.	.	.	(32ggLLL]	.
.	.	.	32bbn	.
.	.	.	32dddn	.
!!linebreak:original
.	.	4bn	32gggJJJ	.
.	.	.	32fff#XLLL	.
!!linebreak:original
4dn	.	.	32ggg	.
.	.	.	32fffn	.
!!linebreak:original
.	4f	.	32dddJJJ)	.
.	.	4dn 4b	.	.
4G	.	.	.	.
.	4G 4f	.	.	.
=95	=95	=95	=95	=95
.	.	.	8eeenL	.
.	.	.	16qqfff/LL	.
.	.	.	16qqeee/	.
.	.	.	16qqdddn/JJ	.
.	.	.	(32eeeLL	.
.	.	.	32ggg)	.
.	.	.	32fff'	.
.	.	.	32eee'JJJ	.
.	.	.	8dddL	.
.	.	8enL 8cc	.	.
.	.	.	16qqeee/LL	.
.	.	.	16qqddd/	.
.	.	.	16qqccc/JJ	.
.	.	.	(32dddLL	.
8C	.	.	32fff)	.
.	.	.	32eee'	.
.	.	16qqdddn/LL	.	.
.	.	16qqccc/	.	.
.	.	16qqbbn/JJ	.	.
.	8G 8en	(32cccLL	32ddd'JJJ	.
.	.	32eeen)	.	.
8r	.	32ddd'	.	.
.	.	32ccc'JJJ	.	.
.	8r	8bbL	.	.
8GG	.	.	.	.
.	.	16qqccc/LL	.	.
.	.	16qqbb/	.	.
.	.	16qqaan/JJ	.	.
.	8G 8f	(32bbLL	.	.
.	.	32ddd)	.	.
8r	.	32ccc'	.	.
.	.	32bb'JJJ	.	.
.	8r	.	.	.
=96	=96	=96	=96	=96
.	.	.	8ccc	.
.	.	.	4g 4gg	.
.	.	8eenL	.	.
.	.	.	[8G [8g	.
[8CCL	.	.	.	.
.	.	16qqff/LL	.	.
.	.	16qqee/	.	.
.	.	16qqddn/JJ	.	.
.	8GL 8en	(32eeLL	.	.
.	.	32gg)	.	.
32CCLL]	.	32ff'	.	.
32CC'	.	32ee'JJJ	.	.
.	16qqddn/LL	.	.	.
.	16qqcc/	.	.	.
.	16qqbn/JJ	.	.	.
32EEn'	(32ccLL	8ddL	.	.
32FF'JJJ	32een)	.	.	.
[8GGL	32dd'	.	.	.
.	32cc'JJJ	.	.	.
.	.	16qqee/LL	.	.
.	.	16qqdd/	.	.
.	.	16qqcc/JJ	.	.
.	8bL	(32ddLL	.	.
.	.	32ff)	.	.
32GGLL]	.	32ee'	.	.
32GG'	.	32dd'JJJ	.	.
.	16qqcc/LL	.	.	.
.	16qqb/	.	.	.
.	16qqan/JJ	.	.	.
32AAn'	(32bLL	.	.	.
32BBn'JJJ	32a)	.	.	.
.	32g'	.	.	.
.	32f'JJJ	.	.	.
=97	=97	=97	=97	=97
.	.	.	32G] 32g]	.
.	.	.	(32ccLLL	.
.	.	.	32c	.
.	.	.	32ccJJJ	.
.	.	.	32enLLL	.
.	.	.	32cc	.
.	.	.	32g	.
.	.	.	32ccJJJ	.
.	.	.	32bnLLL	.
.	.	.	32cc	.
.	.	.	32een	.
.	.	8cc	32ccJJJ	.
.	.	.	32ggLLL	.
4C	.	.	32cc	.
.	.	.	32bb-	.
.	8en	8ra	32ccJJJ)	.
.	8r	4r	.	.
4r	.	.	.	.
.	4r	.	.	.
=98	=98	=98	=98	=98
!!linebreak:original
.	.	.	(32aa-LLL	.
.	.	.	32cc	.
.	.	.	32ff	.
.	.	.	32ccJJJ	.
.	.	.	32eenLLL	.
.	.	.	32cc	.
.	.	.	32ff	.
.	.	.	32ccJJJ	.
.	.	.	32eeLLL	.
.	.	.	32cc	.
.	.	.	32ff	.
!!linebreak:original
.	.	2r	32ccJJJ	.
.	.	.	32ggLLL	.
!!linebreak:original
*clefG2	*	*	*	*
(8ffL	.	.	32cc	.
.	.	.	32aa-	.
!!linebreak:original
.	2r	.	32ccJJJ)	.
8aa-	.	.	.	.
8.ccc	.	.	.	.
16ffJk)	.	.	.	.
=99	=99	=99	=99	=99
.	.	.	(32bb-LLL	.
.	.	.	32cc	.
.	.	.	32aa-	.
.	.	.	32ccJJJ	.
.	.	.	32ggLLL	.
.	.	.	32cc	.
.	.	.	32ff	.
.	.	.	32ccJJJ	.
.	.	.	32eenLLL	.
.	.	.	32cc	.
.	.	.	32gg	.
.	.	2r	32ccJJJ	.
.	.	.	32dd-LLL	.
(8eenL	.	.	32cc	.
.	.	.	32ee	.
.	2r	.	32ccJJJ)	.
8gg	.	.	.	.
8.ccc	.	.	.	.
16bb-Jk)	.	.	.	.
=100	=100	=100	=100	=100
.	.	.	(8ffL	.
.	.	.	8aa-	.
.	.	.	8.ccc	.
.	.	32r	.	.
.	.	(32ccLLL	.	.
(16aa-LL	.	32a-	.	.
.	.	32ccJJJ)	16ffJk)	.
16ff	2f	32r	.	.
.	.	(32ccLLL	.	.
16een	.	32a-	.	.
.	.	32ccJJJ)	.	.
16ffJJ	.	32r	.	.
.	.	(32ccLLL	.	.
16eeLL	.	32a-	.	.
.	.	32ccJJJ)	.	.
16ff	.	(32b-LLL	.	.
.	.	32cc	.	.
16gg	.	32bn)	.	.
.	.	32ccJJJ	.	.
16aa-JJ)	.	.	.	.
=101	=101	=101	=101	=101
.	.	.	(8eenL	.
.	.	.	8gg	.
.	.	.	8.ccc	.
.	.	32r	.	.
.	.	16ccLL	.	.
(16bb-LL	.	.	.	.
.	.	(32ccJJk	16eeenJk)	.
16aa-	[4c	32b-LLL	.	.
.	.	32cc	.	.
16gg	.	32a-	.	.
.	.	32ccJJJ	.	.
16ffJJ	.	32gLLL	.	.
.	.	32cc	.	.
16eenLL	.	32b-	.	.
.	.	32ccJJJ	.	.
16gg	8cL_	32enLLL	.	.
.	.	32cc	.	.
16cc	.	32g	.	.
.	.	32ccJJJ)	.	.
16b-JJ)	(32cLL]	.	.	.
.	32c	.	.	.
.	32g	.	.	.
.	32cJJJ)	.	.	.
=102	=102	=102	=102	=102
!!linebreak:original
.	.	.	(8fffL	.
.	.	.	8aaa-	.
.	.	.	8.cccc	sf
!!linebreak:original
.	.	4cc	.	.
!!linebreak:original
*clefF4	*	*	*	*
(8A-L	.	.	.	.
.	.	.	16eee-Jk)	p
!!linebreak:original
.	32r	.	.	.
.	(32fLLL	.	.	.
8F	32a-	.	.	.
.	32fJJJ	.	.	.
.	32ccLLL	32r	.	.
.	32f	(32ccLLL	.	.
!	!	!	!	!
8.E-	32a-	32ee-X	.	.
.	32fJJJ)	32ccJJJ	.	.
.	4r	32ggLLL	.	.
.	.	32cc	.	.
.	.	32ee-	.	.
.	.	32ccJJJ)	.	.
!	!	!	!	!
16GJk)	.	.	.	.
=103	=103	=103	=103	=103
.	.	.	(8ddd-L	.
.	.	.	8fff	.
.	.	.	8.aaa-	sf
.	.	4r	.	.
(8B-L	.	.	.	.
.	.	.	16cccJk)	p
.	32r	.	.	.
.	(32d-LLL	.	.	.
8D-	32f	.	.	.
.	32d-JJJ	.	.	.
.	32b-LLL	32r	.	.
.	32d-	(32a-LLL	.	.
!	!	!	!	!
8.C	32f	32cc	.	.
.	32d-JJJ)	32a-JJJ	.	.
.	4r	32ee-LLL	.	.
.	.	32a-	.	.
.	.	32cc	.	.
.	.	32a-JJJ)	.	.
16E-Jk)	.	.	.	.
=104	=104	=104	=104	=104
.	.	.	(8bb-L	.
.	.	.	8ddd-	.
.	.	.	8.fff	sf
.	.	4r	.	.
(8G-XL	.	.	.	.
.	.	.	16aa-Jk)	p
.	32r	.	.	.
.	(32B-LLL	.	.	.
8BB-	32d-	.	.	.
.	32B-JJJ	.	.	.
.	32g-XLLL	32r	.	.
.	32B-	(32fLLL	.	.
8.AA-	32d-	32a-	.	.
.	32B-JJJ)	32fJJJ	.	.
.	32r	32ccLLL	.	.
.	(32FLLL	32a-	.	.
.	32A-	32ff	.	.
.	32FJJJ	32ccJJJ)	.	.
16FJk)	32cLLL	.	.	.
.	32A-	.	.	.
.	32f	.	.	.
.	32cJJJ)	.	.	.
=105	=105	=105	=105	=105
.	.	.	8fff	.
.	.	.	4.G 4.f	.
.	.	4ddn	.	.
[8GG	.	.	.	.
.	8Bn	.	.	.
32GGLLL]	.	.	.	.
32BBn	.	.	.	.
32Dn	4.B 4.dn	8r	.	.
32FJJJ	.	.	.	.
32GLLL	.	.	.	.
32Bn	.	.	.	.
32dn	.	(16.bnLL	.	.
32fJJJ	.	.	.	.
(16f#XLL	.	.	.	.
.	.	32ffJJk)	.	.
16gJJ)	.	.	.	.
=106	=106	=106	=106	=106
.	.	.	8bb-	.
.	.	.	4G 4en	.
.	.	16qqeen/LL	.	.
.	.	16qqff/	.	.
.	.	16qqgg/JJ	.	.
.	.	(8ffL	.	.
.	.	.	(16.eenLL	.
[8CC	.	.	.	.
.	8r	8eenJ)	32bb-JJk)	.
32CCLLL]	.	.	.	.
32EEn	.	.	.	.
32GG	(4B-X	4r	.	.
32BBnJJJ	.	.	.	.
32CLLL	.	.	.	.
32En	.	.	.	.
32G	.	.	.	.
32B-JJJ	.	.	.	.
(16BnLL	.	.	.	.
16cJJ)	8g)	.	.	.
=107	=107	=107	=107	=107
!!linebreak:original
.	.	.	(16bb-LL	.
.	.	.	32aanJJk)	.
.	.	.	32r	.
.	.	.	(16bb-LL	.
.	.	.	32aa-XJJk)	.
.	.	.	32r	.
.	.	.	(16aa-LL	.
.	.	.	32ggJJk)	.
!!linebreak:original
.	.	(16e-LL	32r	.
.	.	.	(16ggLL	.
!!linebreak:original
32r	.	32ccJJk)	.	.
(32FFLLL	.	32r	32ffJJk)	.
!!linebreak:original
32F)	(16ccLL	(16dnLL	32r	.
32FJJJ	.	.	.	.
32r	32eenJJk)	32b-JJk)	.	.
(32BB-LLL	32r	32r	.	.
32B-)	(16b-LL	(16b-LL	.	.
32B-JJJ	.	.	.	.
32r	32ddnJJk)	32dd-JJk)	.	.
(32EnLLL	32r	32r	.	.
32en)	(16d-LL	(16a-LL	.	.
32eJJJ	.	.	.	.
32r	32b-JJk)	32ccJJk)	.	.
(32FLLL	32r	32r	.	.
32f)	(16cLL	.	.	.
32fJJJ	.	.	.	.
.	32a-JJk)	.	.	.
.	32r	.	.	.
=108	=108	=108	=108	=108
.	.	.	(32ffLLL	.
.	.	.	32eenJJJ)	.
.	.	.	32r	.
.	.	.	32ee	.
.	.	.	(32eeLLL	.
.	.	.	32ffJJJ)	.
.	.	.	32r	.
!	!	!	!LO:TX:b:i:t=cresc.	!
.	.	.	32gg	.
.	.	.	(32ggLLL	.
.	.	.	32aa-)	.
.	.	.	(32aa-	.
.	.	(32ccLLL	32aanJJJ)	.
.	.	32ccJJJ)	(32aaLLL	.
*clefG2	*	*	*	*
(32ffLLL	.	32r	32bb-)	.
32ggJJJ)	.	32dd-	(32bb-	.
32r	(32a-LLL	(32dd-LLL	32cccJJJ)	.
32gg	32b-JJJ)	32ccJJJ)	.	.
(32ggLLL	32r	32r	.	.
!	!	!LO:TX:b:i:t=cresc.	!	!
32aa-JJJ)	32b-	32cc	.	.
32r	(32b-LLL	(32ccLLL	.	.
!LO:TX:b:i:t=cresc.	!	!	!	!
32een	32a-JJJ)	32ff)	.	.
(32eeLLL	32r	(32ff	.	.
!	!LO:TX:b:i:t=cresc.	!	!	!
32ff)	32b-	32gg-XJJJ)	.	.
(32ff	(32b-LLL	(32gg-LLL	.	.
32ee-XJJJ)	32a-)	32ff)	.	.
(32ee-LLL	(32a-	(32ff	.	.
32dd-JJJ)	32cc-XJJJ)	32ee-JJJ)	.	.
16r	(32cc-LLL	.	.	.
.	32f)	.	.	.
.	(32dd-	.	.	.
.	32anJJJ)	.	.	.
=109	=109	=109	=109	=109
.	.	.	(32cccLLL	.
.	.	.	32ddd-)	.
.	.	.	(32ddd-	.
.	.	.	32eeenJJJ)	.
.	.	.	(32eeeLLL	.
.	.	.	32fff)	.
.	.	.	(32fff	.
.	.	.	32gggJJJ)	.
.	.	.	(32gggLLL	.
.	.	.	32aaa-)	.
.	.	.	(32aaa-	.
.	.	(32ee-LLL	32bbnJJJ)	.
.	.	32dd-)	(32bbLLL	.
*clefF4	*	*	*	*
8r	.	(32dd-	32ccc)	.
.	.	32b-JJJ)	(32ccc	.
.	(32anLLL	(32b-LLL	32dddnJJJ)	.
.	32b-)	32cc)	.	.
16r	(32b-	(32cc	.	.
.	32gJJJ)	32b-JJJ)	.	.
(32A-LLL	(32gLLL	(32b-LLL	.	.
32EnJJJ)	32a-X)	32a-)	.	.
(32ELLL	(32a-	32a-	.	.
32F)	32cJJJ)	32a-JJJ	.	.
(32F	32cLLL	(32a-LLL	.	.
32DnJJJ)	32c	32ff)	.	.
(32DLLL	(32c	(32ff	.	.
32C)	32fJJJ)	32aa-JJJ)	.	.
(32C	(32fLLL	.	.	.
32BB-JJJ)	32a-)	.	.	.
.	(32a-	.	.	.
.	32fJJJ)	.	.	.
=110	=110	=110	=110	=110
.	.	.	8dddn'	.
.	.	.	8r	sf
.	.	.	8Bn'	f
.	.	8aa-'	.	.
.	.	.	8r	.
8BBn'	.	.	.	.
.	8f'	8r	.	.
8r	.	.	.	.
.	8r	8A-' 8f	.	.
8D-'	.	.	.	.
.	8F'	8r	.	.
8r	.	.	.	.
.	8r	.	.	.
=111	=111	=111	=111	=111
.	.	.	8.c	p
.	.	.	16qqccc/LL	.
.	.	.	16qqeee-/JJ	.
.	.	.	32.ddd-'LLL	.
.	.	.	64ccc'JJJk	.
.	.	.	16cccLL	.
.	.	.	16qqccc/LL	.
.	.	.	16qqeee-/JJ	.
.	.	.	32.ddd-'L	.
.	.	16A- 16f	.	.
.	.	.	64ccc'JJJk	.
.	.	.	16ccc	.
16C	.	16r	.	.
.	.	.	16qqccc/LL	.
.	.	.	16qqeee-/JJ	.
.	.	.	32.ddd-'LLL	.
16r	16F	(8a-L	.	.
.	.	.	64ccc'JJJk	.
8r	16r	.	.	.
.	(8fL	8b-	.	.
4r	.	.	.	.
.	8g	8ccJ)	.	.
.	8a-J)	.	.	.
=112	=112	=112	=112	=112
!!linebreak:original
.	.	.	16cccKL	.
.	.	.	16r	.
.	.	.	(8bb-J	.
.	.	.	8aa-L	.
!!linebreak:original
.	.	(8dd-L	.	.
.	.	.	8ggJ	.
!!linebreak:original
8r	.	.	.	.
!!linebreak:original
.	(8b-L	8ggJ	.	.
16r	.	.	.	.
16qqCC/LL	.	.	.	.
16qqEE-/JJ	.	.	.	.
32.DD-'LLL	8dd-J	8ffL	.	.
64CC'JJJk	.	.	.	.
16CC	.	.	.	.
16qqCC/LL	.	.	.	.
16qqEE-/JJ	.	.	.	.
32.DD-'LLL	8ccL	8eenJ	.	.
64CC'JJJk	.	.	.	.
16CC	.	.	.	.
16qqCC/LL	.	.	.	.
16qqEE-/JJ	.	.	.	.
32.DD-'LLL	8b-J	.	.	.
64CC'JJJk	.	.	.	.
=113	=113	=113	=113	=113
.	.	.	16ff)	.
.	.	.	32r	.
.	.	.	32ccc	.
.	.	.	32r	.
.	.	.	(64cccLLLL	.
.	.	.	64eee-J)	.
.	.	.	32ddd-'	.
.	.	.	32ccc'JJJ	.
.	.	.	32r	.
.	.	.	(64cccLLLL	.
.	.	.	64eee-J)	.
.	.	.	32ddd-'	.
.	.	16ff)	32ccc'JJJ	.
.	.	.	32r	.
16FF	.	16r	(64cccLLLL	.
.	.	.	64eee-J)	.
.	.	.	32ddd-'	.
16r	16a-)	(8A-L	32ccc'JJJ	.
8r	16r	.	.	.
.	(8FL	8B-	.	.
4r	.	.	.	.
.	8G	8cJ)	.	.
.	8A-J)	.	.	.
=114	=114	=114	=114	=114
.	.	.	16ccc	.
.	.	.	16r	.
.	.	.	(8gL	.
.	.	.	8f	.
.	.	(8d-L	.	.
.	.	.	8cJ)	.
16.r	.	.	.	.
.	(8B-L	8b-	.	.
32CC	.	.	.	.
32r	.	.	.	.
(64CCLLLL	.	.	.	.
64EE-J)	.	.	.	.
32DD-'	8d-	8a-J)	.	.
32CC'JJJ	.	.	.	.
32r	.	.	.	.
(64CCLLLL	.	.	.	.
64EE-J)	.	.	.	.
32DD-'	8c	(16.gLL	.	.
32CC'JJJ	.	.	.	.
32r	.	.	.	.
(64CCLLLL	.	32ccJJk)	.	.
64EEnJ)	.	.	.	.
32DDn'	8B-J)	.	.	.
32CC'JJJ	.	.	.	.
=115	=115	=115	=115	=115
.	.	.	4c	.
.	.	.	(8bb-L	.
.	.	(8ccL	.	.
.	.	.	16.ddd-L	.
!LO:TX:b:i:t=sempre stacc.	!	!	!	!
32FFLLL	.	.	.	.
32FF	.	.	.	.
32FF	(48A-LLL	16.ee-L	32cccJJk)	.
.	48C	.	.	.
32FFJJJ	.	.	.	.
.	48A-	.	.	.
32CCLLL	48C	.	.	.
.	48A-	.	.	.
32CC	.	32dd-JJk)	.	.
.	48CJJJ	.	.	.
32CC	48A-LLL	(8fL	.	.
.	48C	.	.	.
32CCJJJ	.	.	.	.
.	48A-	.	.	.
32GGLLL	48C	.	.	.
.	48A-	.	.	.
32GG	.	.	.	.
.	48CJJJ)	.	.	.
32GG	(48B-LLL	8enJ)	.	.
.	48C	.	.	.
32GGJJJ	.	.	.	.
.	48B-	.	.	.
32CCLLL	48C	.	.	.
.	48B-	.	.	.
32CC	.	.	.	.
.	48CJJJ	.	.	.
32CC	48B-LLL	.	.	.
.	48C	.	.	.
32CCJJJ	.	.	.	.
.	48B-	.	.	.
.	48C	.	.	.
.	48B-	.	.	.
.	48CJJJ)	.	.	.
=116	=116	=116	=116	=116
!!linebreak:original
.	.	.	[4ccc	.
.	.	.	(8cccL]	.
!!linebreak:original
.	.	(8fL	.	.
.	.	.	16.fffL	.
!!linebreak:original
32AA-LLL	.	.	.	.
32AA-	.	.	.	.
!!linebreak:original
32AA-	(48cLLL	16.ccL	32cccJJk)	.
.	48C	.	.	.
32AA-JJJ	.	.	.	.
.	48c	.	.	.
32EEnLLL	48C	.	.	.
.	48c	.	.	.
32EE	.	32gJJk	.	.
.	48CJJJ	.	.	.
32EE	48cLLL	8b-L	.	.
.	48C	.	.	.
32EEJJJ	.	.	.	.
.	48c	.	.	.
32FFLLL	48C	.	.	.
.	48c	.	.	.
32FF	.	.	.	.
.	48CJJJ)	.	.	.
32FF	(48GLLL	8a-J)	.	.
.	48C	.	.	.
32FFJJJ	.	.	.	.
.	48G	.	.	.
32FFLLL	48C	.	.	.
.	48G	.	.	.
32FF	.	.	.	.
.	48CJJJ	.	.	.
32FF	48FLLL	.	.	.
.	48C	.	.	.
32FFJJJ	.	.	.	.
.	48F	.	.	.
.	48C	.	.	.
.	48F	.	.	.
.	48CJJJ)	.	.	.
=117	=117	=117	=117	=117
.	.	.	(8..cccL	.
.	.	.	32fffJkk)	.
.	.	.	(8fffL	.
.	.	(8..ccL	.	.
.	.	.	16eeenL	.
32AA-LLL	.	.	.	.
32AA-	.	.	16fffTJJ)	.
32AA-	(48FLLL	.	.	.
.	48C	.	.	.
.	.	.	16qqeee/LL	.
.	.	.	16qqfff/JJ	.
32AA-JJJ	.	.	.	.
.	48F	.	.	.
32FFLLL	48C	.	.	.
.	48F	.	.	.
32FF	.	32ffJkk)	.	.
.	48CJJJ)	.	.	.
32FF	(48A-LLL	(8ffL	.	.
.	48C	.	.	.
32FFJJJ	.	.	.	.
.	48A-	.	.	.
32GGLLL	48C	.	.	.
.	48A-	.	.	.
32GG	.	.	.	.
.	48CJJJ)	.	.	.
32GG	(48B-LLL	16eenL	.	.
.	48C	.	.	.
32GGJJJ	.	.	.	.
.	48B-	.	.	.
32GGLLL	48C	16ffTJJ)	.	.
.	48B-	.	.	.
32GG	.	.	.	.
.	48CJJJ)	.	.	.
.	.	16qqee/LL	.	.
.	.	16qqff/JJ	.	.
32FF	(48B-LLL	.	.	.
.	48C	.	.	.
32FFJJJ	.	.	.	.
.	48B-	.	.	.
.	48A-	.	.	.
.	48C	.	.	.
.	48A-JJJ)	.	.	.
=118	=118	=118	=118	=118
.	.	.	(16gggLL	.
.	.	.	16ccc)	.
.	.	.	(16ccc'	.
.	.	.	16bbn'JJ)	.
.	.	.	(8bbL	.
.	.	(16ggLL	.	.
.	.	.	8cccJ)	.
32EEnLLL	.	16cc)	.	.
32EE	.	.	.	.
32CC	(48GLLL	(16cc'	.	.
.	48C	.	.	.
32CCJJJ	.	.	.	.
.	48G	.	.	.
32FFLLL	48En	16bn'JJ)	.	.
.	48G	.	.	.
32FF	.	.	.	.
.	48EJJJ)	.	.	.
32AA-	(48A-LLL	(8bL	.	.
.	48F	.	.	.
32AA-JJJ	.	.	.	.
.	48A-	.	.	.
32CLLL	48F	.	.	.
.	48A-	.	.	.
32C	.	.	.	.
.	48FJJJ)	.	.	.
32C	(48A-LLL	8ccJ)	.	.
.	48F	.	.	.
32CJJJ	.	.	.	.
.	48A-	.	.	.
32CLLL	48F	.	.	.
.	48A-	.	.	.
32C	.	.	.	.
.	48FJJJ)	.	.	.
32C	(48ELLL	.	.	.
.	48G	.	.	.
32CJJJ	.	.	.	.
.	48E	.	.	.
.	48G	.	.	.
.	48E	.	.	.
.	48GJJJ)	.	.	.
=119	=119	=119	=119	=119
!!linebreak:original
.	.	.	(8ddd-L	<
.	.	.	16.bb-L	.
.	.	.	32eee-JJk)	[
.	.	.	(8.eee-L	>
!!linebreak:original
.	.	(8dd-L	.	.
!!linebreak:original
32BB-LLL	.	.	.	.
32BB-	.	.	16cccJk)	.
!!linebreak:original
!	!	!	!	!
32BB-	(48E-LLL	16.b-L	.	.
.	48G	.	.	.
32BB-JJJ	.	.	.	.
.	48E-	.	.	.
32D-LLL	48G	.	.	.
.	48E-	.	.	.
32D-	.	32ee-JJk)	.	.
.	48GJJJ	.	.	.
32D-	48E-LLL	(8.ee-L	.	.
.	48G	.	.	.
32D-JJJ	.	.	.	.
.	48E-	.	.	.
!	!	!	!	!
32CLLL	48G	.	.	.
.	48E-	.	.	.
32C	.	.	.	.
.	48GJJJ)	.	.	.
32C	(48E-LLL	.	.	.
.	48A-	.	.	.
32CJJJ	.	.	.	.
.	48E-	.	.	.
32CLLL	48A-	16ccJk)	.	.
.	48E-	.	.	.
32C	.	.	.	.
.	48A-JJJ	.	.	.
32AA-	48E-LLL	.	.	.
.	48A-	.	.	.
32AA-JJJ	.	.	.	.
.	48E-	.	.	.
.	48A-	.	.	.
.	48E-	.	.	.
.	48A-JJJ)	.	.	.
=120	=120	=120	=120	=120
!	!	!	!LO:TX:b:i:t=cresc.	!
.	.	.	(32eee-LLL	.
.	.	.	32ddd-)	.
.	.	.	(32ccc'	.
.	.	.	32bb-'JJJ)	.
.	.	.	(32aan'LLL	.
.	.	.	32bb-'	.
.	.	.	32fff'	.
.	.	.	32eee-'JJJ)	.
.	.	.	(4eee-	.
.	.	(32ee-LLL	.	.
.	.	32dd-)	.	.
!LO:TX:a:i:t=cresc.	!	!	!	!
32BB-LLL	.	(32cc'	.	.
!LO:TX:b:i:t=cresc.	!	!	!	!
32BB-	.	32b-'JJJ)	.	.
!	!LO:TX:a:i:t=cresc.	!	!	!
32BB-	(48E-LLL	(32an'LLL	.	.
.	48G	.	.	.
32BB-JJJ	.	32b-'	.	.
.	48E-	.	.	.
32D-LLL	48G	32ff'	.	.
.	48E-	.	.	.
32D-	.	32ee-'JJJ)	.	.
.	48GJJJ	.	.	.
32D-	48E-LLL	(4ee-	.	.
.	48G	.	.	.
32D-JJJ	.	.	.	.
.	48E-	.	.	.
32CLLL	48G	.	.	.
.	48E-	.	.	.
32C	.	.	.	.
.	48GJJJ)	.	.	.
32C	(48E-LLL	.	.	.
.	48A-	.	.	.
32CJJJ	.	.	.	.
.	48E-	.	.	.
32CLLL	48A-	.	.	.
.	48E-	.	.	.
32C	.	.	.	.
.	48A-JJJ	.	.	.
32AA-	48E-LLL	.	.	.
.	48A-	.	.	.
32AA-JJJ	.	.	.	.
.	48E-	.	.	.
.	48c	.	.	.
.	48A-	.	.	.
.	48cJJJ)	.	.	.
=121	=121	=121	=121	=121
.	.	.	4eeen)	f
.	.	.	8..fffL	sf
.	.	4cc) 4een	.	.
32GGLLL	.	.	.	.
32GG	.	.	.	.
32GG	(48B-LLL	.	32ffJkk	.
.	48c	.	.	.
32GGJJJ	.	.	.	.
.	48B-	.	.	.
32CCLLL	48c	.	.	.
.	48B-	.	.	.
32CC	.	.	.	.
.	48cJJJ	.	.	.
32CC	48B-LLL	8..ccL 8..ff	.	.
.	48c	.	.	.
32CCJJJ	.	.	.	.
.	48B-	.	.	.
32AA-LLL	48c	.	.	.
.	48B-	.	.	.
32AA-	.	.	.	.
.	48cJJJ)	.	.	.
32AA-	(48A-LLL	.	.	.
.	48c	.	.	.
32AA-JJJ	.	.	.	.
.	48A-	.	.	.
32AAnLLL	48c	.	.	.
.	48A-	.	.	.
32AA	.	32fJkk	.	.
.	48cJJJ	.	.	.
32AA	48FLLL	.	.	.
.	48c	.	.	.
32AAJJJ	.	.	.	.
.	48F	.	.	.
.	48c	.	.	.
.	48F	.	.	.
.	48cJJJ)	.	.	.
=122	=122	=122	=122	=122
!!linebreak:original
.	.	.	(8ddd-L	.
.	.	.	8ccc	.
.	.	.	8.bb-	.
!!linebreak:original
.	.	(8dd-L	.	.
!!linebreak:original
(8BB-L	.	.	.	.
.	.	.	16aa-Jk)	.
!!linebreak:original
.	(48FLLL	8ccJ)	.	.
.	48B-	.	.	.
.	48F	.	.	.
8CJ	48B-	.	.	.
.	48F	.	.	.
.	48B-JJJ)	.	.	.
.	(48E-LLL	48r	.	.
.	48An	(48b-LLL	.	.
.	48E-	48f	.	.
8.D-L	48A	48b-	.	.
.	48E-	48f	.	.
.	48AJJJ)	48b-JJJ	.	.
.	8.FL	48fLLL	.	.
.	.	48b-	.	.
.	.	48f	.	.
.	.	48b-	.	.
.	.	48f	.	.
.	.	48b-JJJ)	.	.
16DnJk)	.	.	.	.
.	16FJk	.	.	.
=123	=123	=123	=123	=123
.	.	.	(8ggL	.
.	.	.	8ff	.
.	.	.	8.ee-	.
.	.	48r	.	.
.	.	(48b-LLL	.	.
.	.	48e-	.	.
(8E-L	.	48b-	.	.
.	.	48e-	.	.
.	.	.	16dd-Jk)	.
.	.	48b-JJJ)	.	.
.	(8GL	48r	.	.
.	.	(48b-LLL	.	.
.	.	48dn	.	.
8FJ	.	48b-	.	.
.	.	48d	.	.
.	.	48b-JJJ)	.	.
.	8A-X	48r	.	.
.	.	(48b-LLL	.	.
.	.	48e-	.	.
8.GL)	.	48b-	.	.
.	.	48e-	.	.
.	.	48b-JJJ	.	.
.	8.B-)	48e-LLL	.	.
.	.	48b-	.	.
.	.	48e-	.	.
.	.	48b-	.	.
.	.	48en	.	.
.	.	48b-JJJ)	.	.
16GJk	.	.	.	.
.	16B-Jk	.	.	.
=124	=124	=124	=124	=124
.	.	.	(4cc	.
.	.	.	8b-L	.
.	.	48r	.	.
.	.	(48a-LLL	.	.
.	.	.	8a-J)	.
.	.	48f	.	.
(8A-L	.	48a-	.	.
.	.	48f	.	.
.	.	48a-JJJ)	.	.
.	8cL	48r	.	.
.	.	(48g-XLLL	.	.
.	.	48e-	.	.
8AnJ	.	48g-	.	.
.	.	48e-	.	.
.	.	48g-JJJ)	.	.
.	(8cJ	48r	.	.
.	.	(48g-LLL	.	.
.	.	48d-	.	.
8B-L	.	48g-	.	.
.	.	48d-	.	.
.	.	48g-JJJ)	.	.
.	8d-L	48r	.	.
.	.	(48fLLL	.	.
.	.	48d-	.	.
8BnJ)	.	48f	.	.
.	.	48dn	.	.
.	.	48fJJJ)	.	.
.	8dnJ)	.	.	.
=125	=125	=125	=125	=125
!!linebreak:original
!	!	!	!LO:TX:b:i:t=cresc.	!
.	.	.	(8gL	.
.	.	.	16.ccL	.
.	.	.	32bnJJk)	.
.	.	.	8bL)	.
!!linebreak:original
!	!	!LO:TX:b:i:t=cresc.	!	!
.	.	(8enL	.	.
.	.	.	8ggJ	sf
!!linebreak:original
!LO:TX:b:i:t=cresc.	!	!	!	!
(8..cL	.	.	.	.
!!linebreak:original
!	!LO:TX:b:i:t=cresc.	!	!	!
.	8enL	16.gL)	.	.
.	.	32gJJk	.	.
.	(16.eL	8gL	.	.
32d-Jkk)	.	.	.	.
(8d-L	.	.	.	.
.	32fJJk)	.	.	.
.	8fL	(8gJ 8bn	.	.
8dnJ)	.	.	.	.
.	8fJ	.	.	.
=126	=126	=126	=126	=126
.	.	.	(64ggLLLL	]
.	.	.	64ff#X	.
.	.	.	64gg	.
.	.	.	64aan	.
.	.	.	64gg	.
.	.	.	64ffn	.
.	.	.	64een	.
!	!	!	!LO:TX:b:i:t=cresc.	!
.	.	.	64ddnJJJJ)	.
.	.	.	(16.ccLL	.
.	.	.	32bnJJk)	.
.	.	.	(8bL	.
.	.	8gL) 8cc	.	.
.	.	.	[8ggJ)	sf
8cL	.	.	.	.
!	!	!LO:TX:b:i:t=cresc.	!	!
.	(8enL	16.enL	.	.
!LO:TX:b:i:t=cresc.	!	!	!	!
(16.cL	.	.	.	.
.	.	32fJJk)	.	.
!	!LO:TX:b:i:t=cresc.	!	!	!
.	16.gL)	(8fL	.	.
32d-JJk)	.	.	.	.
(8d-L	.	.	.	.
.	32gJJk	.	.	.
.	(8gL	[8gJ) [8bn	.	.
8dnJ)	.	.	.	.
.	[8fJ)	.	.	.
=127	=127	=127	=127	=127
.	.	.	8ggL_	>
.	.	.	(64ggLLL]	p
.	.	.	64aan	.
.	.	.	64gg	.
.	.	.	64ff	.
.	.	.	64gg	.
.	.	.	64aa	.
.	.	.	64bbn	.
.	.	.	64cccJJJJ	.
.	.	.	64bbLLLL	.
.	.	.	64ccc	.
.	.	.	64bb	.
.	.	.	64aa	.
.	.	.	64bb	.
.	.	.	64ccc	.
.	.	2g] 2b]	64dddn	.
.	.	.	64eeenJJJJ	.
.	.	.	64dddLLLL	.
.	.	.	64eee	.
2dn	.	.	64ddd	.
.	.	.	64ccc#X	.
.	.	.	64ddd	.
.	.	.	64eee	.
.	2f]	.	64fff	.
.	.	.	64gggJJJJ	.
=128	=128	=128	=128	=128
.	.	.	64fffLLLL	p
.	.	.	64ggg	.
.	.	.	64fff	.
.	.	.	64eeen	.
.	.	.	64fff	.
.	.	.	64ggg	.
.	.	.	64aaan	.
.	.	.	64gggJJJJ	.
.	.	.	64fffLLLL	.
.	.	.	64ggg	.
.	.	.	64fff	.
.	.	.	64eee	.
.	.	.	64dddn	.
.	.	.	64eee	.
.	.	.	64ddd	.
.	.	.	64cccJJJJ	.
.	.	.	64bbnLLLL	.
.	.	.	64ccc	.
.	.	.	64bb	.
.	.	.	64aan	.
.	.	.	64gg	.
.	.	.	64aa	.
.	.	4f 4ddn	64gg	.
.	.	.	64ffJJJJ	.
.	.	.	64eenLLLL	.
.	.	.	64ff	.
2G	.	.	64ee	.
.	.	.	64ddn	.
.	.	.	64cc	.
.	.	.	64dd	.
.	4bn	.	64cc	.
.	.	.	64bnJJJJ)	.
.	.	[4f	.	.
.	[4Bn [4dn	.	.	.
=129	=129	=129	=129	=129
!!linebreak:original
.	.	.	(64anLLLL	.
.	.	.	64bn	.
.	.	.	64a	.
.	.	.	64g	.
.	.	.	64f	.
.	.	.	64g	.
.	.	.	64f	.
.	.	.	64enJJJJ	.
.	.	.	64dnLLLL	.
.	.	.	64e	.
.	.	.	64d	.
.	.	.	64c	.
.	.	.	64Bn	.
.	.	.	64c	.
.	.	.	64B	.
.	.	.	64AnJJJJ	.
.	.	.	64GLLLL	.
.	.	.	64B	.
.	.	.	64A	.
.	.	.	64c	.
.	.	.	64B	.
.	.	.	64d	.
!!linebreak:original
.	.	2G 2f]	64c	.
.	.	.	64eJJJJ	.
.	.	.	64dLLLL	.
.	.	.	64f	.
!!linebreak:original
2GG	.	.	64e	.
.	.	.	64g	.
.	.	.	64f	.
.	.	.	64a	.
!!linebreak:original
.	2B] 2d]	.	64g	.
.	.	.	64BJJJJ)	.
=130	=130	=130	=130	=130
.	.	.	64c'LLLL	.
.	.	.	64c'	.
.	.	.	64dn'	.
.	.	.	64en'	.
.	.	.	64f'	.
.	.	.	64g'	.
.	.	.	64an'	.
.	.	.	64bn'JJJJ	.
.	.	.	64cc'LLLL	.
.	.	.	64e'	.
.	.	.	64f'	.
.	.	.	64g'	.
.	.	.	64a'	.
.	.	.	64b'	.
.	.	.	64cc'	.
.	.	.	64ddn'JJJJ	.
.	.	.	64eenLLLL	.
.	.	.	64cc	.
.	.	.	64dd	.
.	.	.	64ee	.
.	.	.	64ff	.
.	.	.	64gg	.
.	.	8G 8en	64aan	.
.	.	.	64bbnJJJJ	.
.	.	.	64cccLLLL	.
.	.	.	64ee	.
8C	.	.	64ff	.
.	.	.	64gg	.
.	.	.	64aa	.
.	.	.	64bb	.
.	8c	64r	64ccc	.
.	.	64cc'LLLL	64dddnJJJJ	.
.	.	64bn'	.	.
.	.	64an'	.	.
8r	.	64g'	.	.
.	.	64f'	.	.
.	.	64e'	.	.
.	.	64dn'JJJJ	.	.
.	8r	16c	.	.
4r	.	16r	.	.
.	8r	8r	.	.
.	64r	.	.	.
.	64c'LLLL	.	.	.
.	64Bn'	.	.	.
.	64An'	.	.	.
.	64G'	.	.	.
.	64F'	.	.	.
.	64En'	.	.	.
.	64Dn'JJJJ	.	.	.
=131	=131	=131	=131	=131
!!linebreak:original
.	.	.	64eeenLLLL	.
.	.	.	64gg	.
.	.	.	64aan	.
.	.	.	64bbn	.
.	.	.	64ccc	.
.	.	.	64dddn	.
.	.	.	64eee	.
.	.	.	64fffJJJJ	.
.	.	.	64gggLLLL	.
.	.	.	64ccc	.
.	.	.	64ddd	.
.	.	.	64eee	.
.	.	.	64fff	.
.	.	.	64ggg	.
.	.	.	64aaan	.
.	.	.	64bbbnJJJJ	.
.	.	.	(64ccccLLLL	.
.	.	.	64ggg	.
.	.	.	64aaa	.
.	.	.	64fff	.
.	.	.	64ggg	.
.	.	.	64eee	.
!!linebreak:original
.	.	2r	64fff	.
.	.	.	64dddJJJJ)	.
.	.	.	(64eeeLLLL	.
.	.	.	64ccc	.
!!linebreak:original
8r	.	.	64ddd	.
.	.	.	64bb	.
.	.	.	64ccc	.
.	.	.	64gg	.
!!linebreak:original
.	16C	.	64aa	.
.	.	.	64ffJJJJ	.
64r	8.r	.	.	.
64C'LLLL	.	.	.	.
64BBn'	.	.	.	.
64AAn'	.	.	.	.
64GG'	.	.	.	.
64FF'	.	.	.	.
64EEn'	.	.	.	.
64DDn'JJJJ	.	.	.	.
16CC'	.	.	.	.
16r	4r	.	.	.
8r	.	.	.	.
=132	=132	=132	=132	=132
.	.	.	64ggLLLL	.
.	.	.	64een	.
.	.	.	64ff	.
.	.	.	64ddn	.
.	.	.	64ee	.
.	.	.	64cc	.
.	.	.	64dd	.
.	.	.	64bnJJJJ	.
.	.	.	64ccLLLL	.
.	.	.	64b	.
.	.	.	64dd	.
.	.	.	64b	.
.	.	.	64cc	.
.	.	.	64b	.
.	.	.	64dd	.
.	.	.	64bJJJJ	.
.	.	.	64ccLLLL	.
.	.	.	64b	.
.	.	.	64dd	.
.	.	.	64b	.
.	.	.	64cc	.
.	.	.	64b	.
.	.	2r	64dd	.
.	.	.	64bJJJJ	.
.	.	.	64ccLLLL	.
.	.	.	64b	.
2r	.	.	64dd	.
.	.	.	64b	.
.	.	.	64cc	.
.	.	.	64b	.
.	2r	.	64dd	.
.	.	.	64bJJJJ)	.
=133	=133	=133	=133	=133
*	*	*	*^	*
.	.	.	2cct	24...ccyy	.
.	.	.	.	32dd-yy	.
.	.	.	.	32ccyy	.
.	.	.	.	32dd-yy	.
.	.	.	.	32ccyy	.
.	.	.	.	32dd-yy	.
.	.	.	.	32ccyy	.
.	.	.	.	32dd-yy	.
.	.	.	.	32ccyy	.
.	.	.	.	32dd-yy	.
.	.	8c	.	.	.
.	.	.	.	32ccyy	.
.	.	.	.	32dd-yy	.
8CC	.	.	.	.	.
.	.	.	.	32ccyy	.
.	.	.	.	32dd-yy	.
.	8En 8G	8r	.	.	.
.	.	.	.	32ccyy	.
.	.	.	.	192ryy	.
*	*	*	*v	*v	*
8r	.	.	.	.
.	8r	4r	.	.
4r	.	.	.	.
.	4r	.	.	.
==	==	==	==	==
*-	*-	*-	*-	*-
!!!system-decoration: [(s1,s2,s3[(s4)])]
